; generated by Slic3r 1.3.0 on 2023-08-26 at 11:10:17

; external perimeters extrusion width = 0.55mm (7.28mm^3/s)
; perimeters extrusion width = 0.70mm (11.44mm^3/s)
; infill extrusion width = 0.63mm (13.45mm^3/s)
; solid infill extrusion width = 0.70mm (3.81mm^3/s)
; top infill extrusion width = 0.70mm (2.86mm^3/s)

M107
M104 S200 ; set temperature
G28 ; home all axes
G1 Z5 F5000 ; lift nozzle

; Filament gcode

M109 S200 ; set temperature and wait for it to be reached
G21 ; set units to millimeters
G90 ; use absolute coordinates
M82 ; use absolute distances for extrusion
G92 E0
G1 Z0.350 F7800.000
G1 E-2.00000 F2400.00000
G92 E0
G1 X48.881 Y130.952 F7800.000
G1 E2.00000 F2400.00000
G1 F1800
G1 X158.690 Y13.219 E6.47204
G1 X159.190 Y12.714 E6.49180
G1 X159.613 Y12.328 E6.50769
G1 X160.307 Y11.775 E6.53235
G1 X160.794 Y11.439 E6.54880
G1 X161.334 Y11.113 E6.56632
G1 X161.805 Y10.863 E6.58113
G1 X162.359 Y10.609 E6.59806
G1 X162.978 Y10.373 E6.61644
G1 X163.480 Y10.219 E6.63103
G1 X164.341 Y10.027 E6.65555
G1 X165.049 Y9.935 E6.67537
G1 X165.587 Y9.904 E6.69035
G1 X166.495 Y9.927 E6.71557
G1 X167.229 Y10.016 E6.73612
G1 X167.917 Y10.157 E6.75563
G1 X168.443 Y10.306 E6.77080
G1 X169.295 Y10.625 E6.79607
G1 X175.491 Y13.508 E6.98592
G1 X177.515 Y14.977 E7.05537
G1 X178.332 Y15.852 E7.08863
G1 X179.612 Y17.853 E7.15461
G1 X182.221 Y24.253 E7.34659
G1 X182.510 Y25.094 E7.37128
G1 X182.736 Y26.039 E7.39829
G1 X182.796 Y26.409 E7.40871
G1 X182.880 Y27.373 E7.43558
G1 X182.885 Y27.752 E7.44611
G1 X182.829 Y28.703 E7.47257
G1 X182.778 Y29.089 E7.48339
G1 X182.587 Y30.008 E7.50946
G1 X182.476 Y30.400 E7.52078
G1 X182.190 Y31.207 E7.54455
G1 X182.021 Y31.599 E7.55642
G1 X181.679 Y32.280 E7.57757
G1 X181.450 Y32.676 E7.59027
G1 X181.088 Y33.236 E7.60880
G1 X180.452 Y34.074 E7.63803
G1 X179.939 Y34.662 E7.65972
G1 X178.685 Y36.007 E7.71079
G1 X68.876 Y153.739 E12.18281
G1 X35.630 Y188.101 E13.51095
G1 X33.782 Y189.440 E13.57435
G1 X31.587 Y190.065 E13.63774
G1 X29.311 Y189.901 E13.70114
G1 X27.229 Y188.966 E13.76454
G1 X26.117 Y188.014 E13.80519
G1 X25.424 Y187.271 E13.83341
G1 X24.501 Y186.008 E13.87686
G1 X17.954 Y174.349 E14.24829
G1 X17.200 Y172.195 E14.31168
G1 X17.229 Y169.913 E14.37508
G1 X18.642 Y166.928 E14.46683
G1 X47.218 Y132.758 E15.70416
G1 X48.830 Y131.007 E15.77027
G1 E13.77027 F2400.00000
G92 E0
G1 X30.650 Y176.129 F7800.000
G1 E2.00000 F2400.00000
G1 F1800
G1 X31.256 Y178.074 E2.05658
G1 X31.503 Y178.671 E2.07453
G1 X31.746 Y179.082 E2.08780
G1 X32.047 Y179.462 E2.10126
G1 X32.509 Y179.846 E2.11794
G1 X31.920 Y180.477 E2.14192
G1 X30.671 Y176.201 E2.26566
G1 E0.26566 F2400.00000
G92 E0
G1 X29.198 Y172.104 F7800.000
G1 E2.00000 F2400.00000
G1 F1800
G1 X27.413 Y170.194 E2.07261
G1 X27.107 Y169.920 E2.08401
G1 X26.827 Y169.743 E2.09323
G1 X27.202 Y169.341 E2.10850
G1 X27.547 Y169.803 E2.12452
G1 X28.813 Y171.163 E2.17613
G1 X29.170 Y172.034 E2.20229
G1 E0.20229 F2400.00000
G92 E0
G1 X25.835 Y169.984 F7800.000
G1 E2.00000 F2400.00000
G1 F1800
G1 X27.408 Y168.297 E2.06406
G1 X27.419 Y168.412 E2.06728
G1 X27.508 Y168.702 E2.07568
G1 X27.693 Y169.070 E2.08714
G1 X27.976 Y169.440 E2.10009
G1 X29.294 Y170.855 E2.15379
G1 X30.456 Y173.699 E2.23913
G1 X30.643 Y174.220 E2.25449
G1 X31.784 Y177.882 E2.36106
G1 X32.007 Y178.420 E2.37721
G1 X32.209 Y178.764 E2.38832
G1 X32.451 Y179.069 E2.39912
G1 X32.796 Y179.358 E2.41162
G1 X33.235 Y179.544 E2.42485
G1 X33.537 Y179.565 E2.43329
G1 X31.582 Y181.661 E2.51291
G1 X31.547 Y181.272 E2.52377
G1 X31.445 Y180.853 E2.53573
G1 X29.099 Y172.820 E2.76821
G1 X27.021 Y170.595 E2.85277
G1 X26.768 Y170.370 E2.86218
G1 X26.407 Y170.142 E2.87404
G1 X26.119 Y170.028 E2.88264
G1 X25.909 Y169.995 E2.88854
G1 E0.88854 F2400.00000
G92 E0
G1 X36.705 Y173.950 F7800.000
G1 E2.00000 F2400.00000
G1 F1800
G1 X37.258 Y174.141 E2.01626
G1 X37.886 Y174.328 E2.03445
G1 X38.366 Y174.388 E2.04788
G1 X37.500 Y175.317 E2.08316
G1 X37.415 Y174.855 E2.09621
G1 X37.171 Y174.408 E2.11035
G1 X36.876 Y174.085 E2.12251
G1 X36.764 Y173.996 E2.12647
G1 E0.12647 F2400.00000
G92 E0
G1 X33.357 Y179.033 F7800.000
G1 E2.00000 F2400.00000
G1 F1800
G1 X33.677 Y179.056 E2.00754
G1 X34.005 Y178.962 E2.01557
G1 X34.313 Y178.772 E2.02408
G1 X34.635 Y178.468 E2.03448
G1 X34.952 Y178.808 E2.04540
G1 X30.915 Y183.136 E2.18457
G1 X30.592 Y182.790 E2.19569
G1 X30.786 Y182.568 E2.20261
G1 X30.980 Y182.197 E2.21247
G1 X31.050 Y181.960 E2.21828
G1 X31.072 Y181.775 E2.22265
G1 X31.035 Y181.357 E2.23253
G1 X30.945 Y180.988 E2.24146
G1 X28.637 Y173.083 E2.43510
G1 X26.658 Y170.966 E2.50322
G1 X26.455 Y170.785 E2.50963
G1 X26.172 Y170.606 E2.51751
G1 X25.983 Y170.531 E2.52230
G1 X25.716 Y170.489 E2.52865
G1 X25.515 Y170.517 E2.53340
G1 X25.273 Y170.620 E2.53960
G1 X24.911 Y170.918 E2.55063
G1 X24.378 Y171.487 E2.56897
G1 X24.051 Y171.137 E2.58023
G1 X28.543 Y166.321 E2.73509
G1 X28.869 Y166.671 E2.74634
G1 X28.282 Y167.304 E2.76666
G1 X28.054 Y167.609 E2.77560
G1 X27.973 Y167.772 E2.77987
G1 X27.904 Y168.030 E2.78616
G1 X27.930 Y168.312 E2.79281
G1 X27.990 Y168.508 E2.79764
G1 X28.134 Y168.794 E2.80517
G1 X28.373 Y169.106 E2.81440
G1 X30.314 Y171.192 E2.88141
G1 X37.417 Y173.648 E3.05812
G1 X37.993 Y173.819 E3.07226
G1 X38.461 Y173.878 E3.08336
G1 X38.803 Y173.816 E3.09151
G1 X39.029 Y173.701 E3.09748
G1 X39.175 Y173.588 E3.10183
G1 X39.357 Y173.399 E3.10800
G1 X39.677 Y173.742 E3.11903
G1 X36.599 Y177.042 E3.22514
G1 X36.282 Y176.702 E3.23605
G1 X36.678 Y176.238 E3.25040
G1 X36.792 Y176.057 E3.25543
G1 X36.934 Y175.720 E3.26402
G1 X36.984 Y175.375 E3.27223
G1 X36.921 Y175.030 E3.28046
G1 X36.746 Y174.711 E3.28901
G1 X36.522 Y174.465 E3.29684
G1 X36.227 Y174.232 E3.30568
G1 X35.780 Y173.999 E3.31753
G1 X32.520 Y172.779 E3.39937
G1 X31.546 Y172.372 E3.42419
G1 X30.226 Y171.767 E3.45834
G1 X30.940 Y173.513 E3.50269
G1 X31.134 Y174.055 E3.51622
G1 X32.271 Y177.706 E3.60613
G1 X32.471 Y178.188 E3.61841
G1 X32.638 Y178.471 E3.62612
G1 X32.824 Y178.706 E3.63317
G1 X33.069 Y178.911 E3.64069
G1 X33.288 Y179.004 E3.64628
G1 X33.450 Y179.340 F7800.000
G1 E1.64628 F2400.00000
G92 E0
G1 X42.922 Y169.346 F7800.000
G1 E2.00000 F2400.00000
G1 F1800
G1 X39.268 Y165.429 E2.12594
G1 X40.107 Y164.537 E2.15473
G1 X40.570 Y164.130 E2.16924
G1 X41.024 Y163.851 E2.18176
G1 X41.336 Y163.737 E2.18958
G1 X41.649 Y163.689 E2.19702
G1 X41.953 Y163.704 E2.20417
G1 X42.121 Y163.740 E2.20822
G1 X42.423 Y163.851 E2.21578
G1 X42.864 Y164.114 E2.22786
G1 X43.316 Y164.486 E2.24161
G1 X43.774 Y164.961 E2.25714
G1 X44.042 Y165.297 E2.26724
G1 X44.334 Y165.776 E2.28043
G1 X44.510 Y166.232 E2.29191
G1 X44.564 Y166.553 E2.29958
G1 X44.563 Y166.874 E2.30712
G1 X44.500 Y167.197 E2.31485
G1 X44.379 Y167.515 E2.32286
G1 X44.117 Y167.971 E2.33522
G1 X43.878 Y168.294 E2.34468
G1 X42.972 Y169.291 E2.37635
G1 X42.568 Y169.700 F7800.000
G1 E0.37635 F2400.00000
G92 E0
G1 X41.758 Y163.176 F7800.000
G1 E2.00000 F2400.00000
G1 F1800
G1 X41.622 Y163.169 E2.00378
G1 X41.207 Y163.233 E2.01546
G1 X40.926 Y163.336 E2.02377
G1 X41.184 Y162.767 E2.04112
G1 X41.224 Y162.610 E2.04562
G1 X41.707 Y163.121 E2.06516
G1 X43.314 Y163.126 F7800.000
G1 F1800
G1 X43.677 Y163.047 E2.07548
G1 X43.800 Y163.043 E2.07891
G1 X44.007 Y163.084 E2.08478
G1 X44.291 Y163.229 E2.09362
G1 X44.455 Y163.356 E2.09939
G1 X44.642 Y163.538 E2.10663
G1 X44.896 Y163.849 E2.11780
G1 X45.065 Y164.133 E2.12698
G1 X45.170 Y164.403 E2.13501
G1 X45.223 Y164.670 E2.14258
G1 X45.228 Y164.960 E2.15064
G1 X45.204 Y165.130 E2.15541
G1 X44.928 Y164.677 E2.17013
G1 X44.586 Y164.249 E2.18535
G1 X44.049 Y163.692 E2.20684
G1 X43.486 Y163.230 E2.22707
G1 X43.378 Y163.165 E2.23058
G1 X41.895 Y163.183 F7800.000
G1 F1800
G1 X42.637 Y162.788 E2.25392
G1 X43.038 Y162.620 E2.26598
G1 X43.412 Y162.518 E2.27677
G1 X43.824 Y162.481 E2.28825
G1 X44.008 Y162.502 E2.29340
G1 X44.194 Y162.553 E2.29874
G1 X44.392 Y162.639 E2.30476
G1 X44.604 Y162.762 E2.31156
G1 X44.824 Y162.932 E2.31927
G1 X45.056 Y163.158 E2.32829
G1 X45.357 Y163.527 E2.34151
G1 X45.571 Y163.887 E2.35313
G1 X45.711 Y164.245 E2.36382
G1 X45.783 Y164.610 E2.37415
G1 X45.790 Y164.995 E2.38485
G1 X45.730 Y165.411 E2.39652
G1 X45.593 Y165.868 E2.40976
G1 X45.379 Y166.365 E2.42481
G1 X45.081 Y166.900 E2.44182
G1 X45.082 Y166.511 E2.45264
G1 X45.011 Y166.094 E2.46438
G1 X44.800 Y165.546 E2.48069
G1 X44.467 Y165.000 E2.49847
G1 X44.164 Y164.620 E2.51197
G1 X43.668 Y164.105 E2.53183
G1 X43.163 Y163.690 E2.54999
G1 X42.647 Y163.381 E2.56668
G1 X42.264 Y163.241 E2.57800
G1 X41.970 Y163.187 E2.58631
G1 E0.58631 F2400.00000
G92 E0
G1 X41.874 Y169.805 F7800.000
G1 E2.00000 F2400.00000
G1 F1800
G1 X41.584 Y170.115 E2.01180
G1 X41.439 Y169.867 E2.01980
G1 X41.119 Y169.480 E2.03374
G1 X34.755 Y162.658 E2.29289
G1 X34.257 Y162.199 E2.31169
G1 X34.003 Y162.049 E2.31990
G1 X34.322 Y161.707 E2.33289
G1 X41.823 Y169.750 E2.63839
G1 X42.641 Y169.805 F7800.000
G1 F1800
G1 X41.361 Y171.177 E2.69051
G1 X41.363 Y171.078 E2.69326
G1 X41.199 Y170.567 E2.70815
G1 X40.978 Y170.190 E2.72032
G1 X40.697 Y169.850 E2.73255
G1 X34.359 Y163.056 E2.99064
G1 X33.921 Y162.653 E3.00719
G1 X33.539 Y162.428 E3.01949
G1 X33.152 Y162.306 E3.03078
G1 X33.004 Y162.298 E3.03489
G1 X34.322 Y160.885 E3.08855
G1 X42.590 Y169.750 E3.42529
G1 E1.42529 F2400.00000
G92 E0
G1 X38.839 Y164.969 F7800.000
G1 E2.00000 F2400.00000
G1 F1800
G1 X34.752 Y160.587 E2.14091
G1 X35.955 Y159.303 E2.18228
G1 X36.408 Y158.909 E2.19640
G1 X36.860 Y158.631 E2.20888
G1 X37.182 Y158.518 E2.21691
G1 X37.510 Y158.469 E2.22469
G1 X37.832 Y158.485 E2.23228
G1 X38.008 Y158.523 E2.23652
G1 X38.328 Y158.640 E2.24453
G1 X38.802 Y158.920 E2.25746
G1 X39.295 Y159.322 E2.27242
G1 X39.799 Y159.845 E2.28950
G1 X40.213 Y160.368 E2.30520
G1 X40.433 Y160.713 E2.31481
G1 X40.609 Y161.047 E2.32370
G1 X40.773 Y161.549 E2.33612
G1 X40.810 Y161.903 E2.34448
G1 X40.781 Y162.250 E2.35266
G1 X40.693 Y162.594 E2.36102
G1 X40.464 Y163.099 E2.37406
G1 X40.097 Y163.610 E2.38885
G1 X38.890 Y164.914 E2.43064
G1 X38.485 Y165.322 F7800.000
G1 E0.43064 F2400.00000
G92 E0
G1 X41.224 Y159.947 F7800.000
G1 E2.00000 F2400.00000
G1 F1800
G1 X41.094 Y159.742 E2.00674
G1 X40.612 Y159.134 E2.02829
G1 X40.026 Y158.527 E2.05172
G1 X39.421 Y158.032 E2.07344
G1 X38.900 Y157.725 E2.09024
G1 X38.999 Y157.696 E2.09311
G1 X39.292 Y157.661 E2.10131
G1 X39.533 Y157.676 E2.10801
G1 X39.772 Y157.738 E2.11488
G1 X40.027 Y157.860 E2.12273
G1 X40.310 Y158.058 E2.13233
G1 X40.623 Y158.354 E2.14427
G1 X40.830 Y158.600 E2.15321
G1 X41.025 Y158.925 E2.16375
G1 X41.113 Y159.138 E2.17014
G1 X41.211 Y159.534 E2.18149
G1 X41.227 Y159.872 E2.19087
G1 X41.300 Y161.605 F7800.000
G1 F1800
G1 X41.283 Y161.441 E2.19545
G1 X41.088 Y160.845 E2.21288
G1 X40.881 Y160.452 E2.22519
G1 X40.636 Y160.068 E2.23787
G1 X40.190 Y159.503 E2.25786
G1 X39.646 Y158.940 E2.27960
G1 X39.099 Y158.494 E2.29921
G1 X38.551 Y158.170 E2.31689
G1 X38.152 Y158.024 E2.32868
G1 X37.900 Y157.970 E2.33586
G1 X37.484 Y157.949 E2.34741
G1 X37.231 Y157.987 E2.35452
G1 X37.510 Y157.778 E2.36420
G1 X38.006 Y157.477 E2.38031
G1 X38.466 Y157.268 E2.39434
G1 X38.885 Y157.144 E2.40649
G1 X39.276 Y157.098 E2.41742
G1 X39.622 Y157.120 E2.42706
G1 X39.965 Y157.209 E2.43689
G1 X40.311 Y157.374 E2.44752
G1 X40.665 Y157.622 E2.45956
G1 X41.031 Y157.968 E2.47355
G1 X41.361 Y158.381 E2.48824
G1 X41.531 Y158.678 E2.49774
G1 X41.647 Y158.963 E2.50628
G1 X41.766 Y159.440 E2.51995
G1 X41.793 Y159.734 E2.52815
G1 X41.782 Y160.040 E2.53664
G1 X41.700 Y160.566 E2.55144
G1 X41.608 Y160.902 E2.56109
G1 X41.481 Y161.240 E2.57113
G1 X41.333 Y161.538 E2.58037
G1 X41.572 Y162.224 F7800.000
G1 F1800
G1 X41.914 Y162.586 E2.59210
G1 X42.415 Y162.320 E2.60544
G1 X42.869 Y162.130 E2.61701
G1 X43.307 Y162.010 E2.62769
G1 X43.582 Y161.970 E2.63423
G1 X43.846 Y161.962 E2.64044
G1 X44.107 Y161.993 E2.64662
G1 X44.366 Y162.063 E2.65292
G1 X44.626 Y162.176 E2.65959
G1 X44.893 Y162.331 E2.66686
G1 X45.164 Y162.540 E2.67491
G1 X45.439 Y162.808 E2.68393
G1 X45.783 Y163.229 E2.69672
G1 X46.038 Y163.659 E2.70847
G1 X46.210 Y164.100 E2.71960
G1 X46.300 Y164.554 E2.73049
G1 X46.309 Y165.028 E2.74162
G1 X46.237 Y165.523 E2.75338
G1 X46.081 Y166.045 E2.76620
G1 X45.844 Y166.594 E2.78027
G1 X45.523 Y167.170 E2.79576
G1 X45.119 Y167.771 E2.81280
G1 X44.629 Y168.398 E2.83150
G1 X44.053 Y169.050 E2.85196
G1 X40.414 Y172.952 E2.97742
G1 X40.086 Y172.601 E2.98872
G1 X40.562 Y172.084 E3.00524
G1 X40.762 Y171.754 E3.01431
G1 X40.838 Y171.505 E3.02043
G1 X40.844 Y171.155 E3.02867
G1 X40.724 Y170.780 E3.03793
G1 X40.552 Y170.488 E3.04590
G1 X40.308 Y170.192 E3.05491
G1 X33.994 Y163.424 E3.27256
G1 X33.611 Y163.071 E3.28481
G1 X33.327 Y162.904 E3.29254
G1 X33.059 Y162.819 E3.29917
G1 X32.795 Y162.805 E3.30539
G1 X32.552 Y162.869 E3.31128
G1 X32.346 Y162.992 E3.31692
G1 X32.165 Y163.144 E3.32248
G1 X31.713 Y163.624 E3.33799
G1 X31.386 Y163.273 E3.34926
G1 X35.459 Y158.905 E3.48969
G1 X36.068 Y158.290 E3.51005
G1 X36.655 Y157.771 E3.52846
G1 X37.220 Y157.348 E3.54507
G1 X37.764 Y157.019 E3.56002
G1 X38.284 Y156.781 E3.57347
G1 X38.781 Y156.635 E3.58563
G1 X39.262 Y156.578 E3.59702
G1 X39.705 Y156.606 E3.60747
G1 X40.143 Y156.720 E3.61812
G1 X40.572 Y156.924 E3.62929
G1 X40.994 Y157.220 E3.64139
G1 X41.409 Y157.612 E3.65482
G1 X41.687 Y157.943 E3.66497
G1 X41.997 Y158.451 E3.67898
G1 X42.141 Y158.802 E3.68790
G1 X42.278 Y159.354 E3.70128
G1 X42.312 Y159.720 E3.70992
G1 X42.299 Y160.089 E3.71860
G1 X42.208 Y160.675 E3.73255
G1 X42.101 Y161.062 E3.74198
G1 X41.956 Y161.446 E3.75164
G1 X41.605 Y162.156 E3.77027
G1 X41.256 Y162.610 F7800.000
G1 E1.77027 F2400.00000
G92 E0
G1 X50.129 Y160.150 F7800.000
G1 E2.00000 F2400.00000
G1 F1800
G1 X50.704 Y159.870 E2.01778
G1 X50.768 Y160.269 E2.02900
G1 X50.457 Y160.602 E2.04168
G1 X50.351 Y160.418 E2.04760
G1 X50.177 Y160.208 E2.05515
G1 E0.05515 F2400.00000
G92 E0
G1 X48.936 Y147.953 F7800.000
G1 E2.00000 F2400.00000
G1 F1800
G1 X48.769 Y146.899 E2.02962
G1 X49.497 Y147.679 E2.05924
G1 X49.004 Y147.920 E2.07448
G1 X49.437 Y148.333 F7800.000
G1 F1800
G1 X51.365 Y160.451 E2.41533
G1 X50.243 Y161.654 E2.46101
G1 X50.228 Y161.489 E2.46562
G1 X50.097 Y161.103 E2.47692
G1 X49.888 Y160.738 E2.48860
G1 X49.607 Y160.399 E2.50084
G1 X49.211 Y159.974 E2.51697
G1 X50.198 Y159.493 E2.54750
G1 X48.080 Y146.133 E2.92323
G1 X48.451 Y145.735 E2.93834
G1 X50.424 Y147.851 E3.01869
G1 X49.504 Y148.300 E3.04712
G1 E1.04712 F2400.00000
G92 E0
G1 X56.516 Y154.178 F7800.000
G1 E2.00000 F2400.00000
G1 F1800
G1 X56.919 Y154.320 E2.01186
G1 X57.077 Y154.327 E2.01625
G1 X56.608 Y154.829 E2.03534
G1 X56.508 Y154.414 E2.04719
G1 X56.334 Y154.059 E2.05818
G1 X56.453 Y154.137 E2.06214
G1 E0.06214 F2400.00000
G92 E0
G1 X42.649 Y153.070 F7800.000
G1 E2.00000 F2400.00000
G1 F1800
G1 X42.529 Y152.987 E2.00406
G1 X42.048 Y152.793 E2.01847
G1 X41.875 Y152.786 E2.02329
G1 X42.361 Y152.265 E2.04308
G1 X42.386 Y152.473 E2.04889
G1 X42.520 Y152.860 E2.06028
G1 X42.610 Y153.006 E2.06505
G1 X41.938 Y153.307 F7800.000
G1 F1800
G1 X41.652 Y153.296 E2.07178
G1 X41.344 Y153.400 E2.07942
G1 X41.090 Y153.583 E2.08678
G1 X40.586 Y154.112 E2.10396
G1 X40.258 Y153.760 E2.11528
G1 X43.327 Y150.470 E2.22107
G1 X43.654 Y150.821 E2.23235
G1 X43.169 Y151.346 E2.24915
G1 X42.994 Y151.597 E2.25634
G1 X42.915 Y151.761 E2.26062
G1 X42.859 Y152.073 E2.26809
G1 X42.894 Y152.355 E2.27477
G1 X42.991 Y152.637 E2.28179
G1 X43.118 Y152.843 E2.28746
G1 X43.442 Y153.239 E2.29950
G1 X49.195 Y159.406 E2.49781
G1 X49.627 Y159.195 E2.50912
G1 X47.529 Y145.964 E2.82411
G1 X48.451 Y144.976 E2.85590
G1 X56.103 Y153.181 E3.11971
G1 X56.477 Y153.534 E3.13181
G1 X56.747 Y153.710 E3.13939
G1 X57.018 Y153.806 E3.14615
G1 X57.292 Y153.818 E3.15260
G1 X57.538 Y153.746 E3.15863
G1 X57.795 Y153.593 E3.16566
G1 X57.970 Y153.447 E3.17101
G1 X58.386 Y153.003 E3.18532
G1 X58.703 Y153.343 E3.19625
G1 X55.634 Y156.633 E3.30204
G1 X55.317 Y156.293 E3.31298
G1 X55.748 Y155.830 E3.32784
G1 X55.882 Y155.646 E3.33321
G1 X56.024 Y155.376 E3.34038
G1 X56.101 Y155.070 E3.34779
G1 X56.091 Y154.867 E3.35256
G1 X56.020 Y154.596 E3.35916
G1 X55.881 Y154.312 E3.36660
G1 X55.577 Y153.927 E3.37814
G1 X50.441 Y148.419 E3.55522
G1 X50.008 Y148.630 E3.56653
G1 X51.916 Y160.620 E3.85200
G1 X49.286 Y163.439 E3.94267
G1 X48.968 Y163.099 E3.95362
G1 X49.445 Y162.581 E3.97017
G1 X49.573 Y162.384 E3.97570
G1 X49.694 Y162.119 E3.98255
G1 X49.744 Y161.874 E3.98844
G1 X49.718 Y161.597 E3.99496
G1 X49.623 Y161.317 E4.00191
G1 X49.461 Y161.035 E4.00957
G1 X49.218 Y160.741 E4.01853
G1 X42.859 Y153.923 E4.23777
G1 X42.566 Y153.643 E4.24728
G1 X42.282 Y153.446 E4.25543
G1 X42.008 Y153.335 E4.26237
G1 X41.844 Y153.037 F7800.000
G1 E2.26237 F2400.00000
G92 E0
G1 X57.976 Y145.696 F7800.000
G1 E2.00000 F2400.00000
G1 F1800
G1 X58.132 Y145.645 E2.00457
G1 X58.317 Y145.639 E2.00970
G1 X58.417 Y145.676 E2.01267
G1 X58.572 Y145.784 E2.01792
G1 X61.049 Y148.425 E2.11849
G1 X61.537 Y148.880 E2.13703
G1 X61.913 Y149.153 E2.14993
G1 X61.680 Y149.167 E2.15642
G1 X61.558 Y149.144 E2.15987
G1 X61.274 Y149.012 E2.16857
G1 X61.096 Y148.877 E2.17478
G1 X60.869 Y148.659 E2.18353
G1 X58.444 Y146.066 E2.28215
G1 X58.041 Y145.733 E2.29666
G1 X58.428 Y145.087 F7800.000
G1 F1800
G1 X58.675 Y145.176 E2.30394
G1 X58.942 Y145.361 E2.31297
G1 X61.446 Y148.028 E2.41459
G1 X61.894 Y148.446 E2.43162
G1 X62.271 Y148.719 E2.44455
G1 X62.592 Y148.873 E2.45443
G1 X63.047 Y148.987 E2.46745
G1 X63.237 Y148.982 E2.47273
G1 X62.870 Y149.295 E2.48614
G1 X62.583 Y149.485 E2.49569
G1 X62.317 Y149.616 E2.50394
G1 X62.071 Y149.696 E2.51111
G1 X61.843 Y149.731 E2.51753
G1 X61.624 Y149.727 E2.52363
G1 X61.409 Y149.687 E2.52969
G1 X61.194 Y149.609 E2.53606
G1 X60.968 Y149.483 E2.54323
G1 X60.731 Y149.305 E2.55148
G1 X60.469 Y149.052 E2.56157
G1 X58.058 Y146.475 E2.65961
G1 X57.726 Y146.199 E2.67159
G1 X57.362 Y145.988 E2.68329
G1 X56.989 Y145.862 E2.69422
G1 X56.672 Y145.810 E2.70314
G1 X57.382 Y145.361 E2.72646
G1 X57.619 Y145.236 E2.73389
G1 X58.010 Y145.097 E2.74544
G1 X58.164 Y145.072 E2.74976
G1 X58.354 Y145.078 E2.75503
G1 E0.75503 F2400.00000
G92 E0
G1 X56.467 Y145.804 F7800.000
G1 E2.00000 F2400.00000
G1 F1800
G1 X56.228 Y145.809 E2.00665
G1 X55.721 Y145.936 E2.02117
G1 X55.471 Y146.055 E2.02887
G1 X55.607 Y145.725 E2.03878
G1 X55.706 Y145.362 E2.04922
G1 X55.734 Y145.019 E2.05878
G1 X56.416 Y145.749 E2.08652
G1 E0.08652 F2400.00000
G92 E0
G1 X55.730 Y143.211 F7800.000
G1 E2.00000 F2400.00000
G1 F1800
G1 X55.548 Y142.961 E2.00859
G1 X53.153 Y140.386 E2.10628
G1 X52.883 Y140.043 E2.11841
G1 X52.721 Y139.733 E2.12812
G1 X52.669 Y139.572 E2.13282
G1 X52.637 Y139.308 E2.14020
G1 X52.882 Y139.650 E2.15190
G1 X55.561 Y142.556 E2.26167
G1 X55.631 Y142.659 E2.26512
G1 X55.709 Y142.834 E2.27045
G1 X55.740 Y143.137 E2.27890
G1 X55.708 Y144.666 F7800.000
G1 F1800
G1 X55.687 Y144.455 E2.28480
G1 X55.569 Y144.056 E2.29634
G1 X55.372 Y143.673 E2.30831
G1 X55.114 Y143.318 E2.32049
G1 X52.726 Y140.751 E2.41789
G1 X52.410 Y140.349 E2.43210
G1 X52.202 Y139.951 E2.44457
G1 X52.122 Y139.706 E2.45173
G1 X52.079 Y139.447 E2.45901
G1 X52.073 Y139.180 E2.46645
G1 X52.106 Y138.904 E2.47417
G1 X52.183 Y138.617 E2.48240
G1 X52.309 Y138.311 E2.49161
G1 X52.487 Y137.982 E2.50199
G1 X52.643 Y137.758 E2.50958
G1 X52.646 Y137.878 E2.51292
G1 X52.707 Y138.195 E2.52186
G1 X52.812 Y138.501 E2.53086
G1 X52.965 Y138.804 E2.54030
G1 X53.318 Y139.295 E2.55707
G1 X55.865 Y142.046 E2.66122
G1 X56.009 Y142.217 E2.66745
G1 X56.192 Y142.522 E2.67730
G1 X56.284 Y142.828 E2.68620
G1 X56.302 Y142.997 E2.69091
G1 X56.276 Y143.357 E2.70094
G1 X56.142 Y143.809 E2.71404
G1 X56.027 Y144.069 E2.72194
G1 X55.743 Y144.600 E2.73865
G1 X56.229 Y144.790 F7800.000
G1 F1800
G1 X56.632 Y145.222 E2.75256
G1 X57.123 Y144.912 E2.76619
G1 X57.398 Y144.767 E2.77351
G1 X57.656 Y144.660 E2.78009
G1 X57.898 Y144.590 E2.78600
G1 X58.122 Y144.555 E2.79132
G1 X58.332 Y144.553 E2.79627
G1 X58.531 Y144.578 E2.80098
G1 X58.723 Y144.632 E2.80567
G1 X58.912 Y144.714 E2.81052
G1 X59.099 Y144.826 E2.81564
G1 X59.283 Y144.970 E2.82114
G1 X59.471 Y145.153 E2.82730
G1 X61.812 Y147.662 E2.90800
G1 X62.224 Y148.046 E2.92123
G1 X62.537 Y148.272 E2.93032
G1 X62.768 Y148.383 E2.93635
G1 X63.104 Y148.467 E2.94448
G1 X63.441 Y148.458 E2.95241
G1 X63.676 Y148.392 E2.95815
G1 X63.901 Y148.279 E2.96406
G1 X64.122 Y148.115 E2.97054
G1 X64.636 Y147.578 E2.98803
G1 X64.956 Y147.920 E2.99903
G1 X63.882 Y149.072 E3.03606
G1 X63.525 Y149.425 E3.04786
G1 X63.179 Y149.712 E3.05843
G1 X62.842 Y149.935 E3.06794
G1 X62.512 Y150.098 E3.07658
G1 X62.191 Y150.202 E3.08451
G1 X61.878 Y150.250 E3.09196
G1 X61.572 Y150.244 E3.09917
G1 X61.272 Y150.189 E3.10634
G1 X60.978 Y150.081 E3.11371
G1 X60.685 Y149.919 E3.12157
G1 X60.394 Y149.699 E3.13015
G1 X60.100 Y149.416 E3.13975
G1 X57.702 Y146.853 E3.22229
G1 X57.429 Y146.626 E3.23064
G1 X57.147 Y146.462 E3.23830
G1 X56.863 Y146.366 E3.24535
G1 X56.582 Y146.319 E3.25205
G1 X56.297 Y146.326 E3.25875
G1 X55.897 Y146.426 E3.26845
G1 X55.627 Y146.554 E3.27548
G1 X55.374 Y146.724 E3.28264
G1 X54.902 Y147.139 E3.29743
G1 X54.449 Y146.653 E3.31304
G1 X54.773 Y146.227 E3.32564
G1 X55.001 Y145.835 E3.33630
G1 X55.116 Y145.557 E3.34337
G1 X55.194 Y145.272 E3.35032
G1 X55.218 Y144.977 E3.35729
G1 X55.176 Y144.554 E3.36727
G1 X55.086 Y144.249 E3.37474
G1 X54.930 Y143.945 E3.38278
G1 X54.714 Y143.648 E3.39143
G1 X52.332 Y141.088 E3.47364
G1 X51.973 Y140.631 E3.48731
G1 X51.722 Y140.152 E3.50002
G1 X51.618 Y139.829 E3.50800
G1 X51.562 Y139.496 E3.51595
G1 X51.554 Y139.154 E3.52400
G1 X51.597 Y138.805 E3.53225
G1 X51.691 Y138.451 E3.54087
G1 X51.841 Y138.088 E3.55010
G1 X52.046 Y137.710 E3.56021
G1 X52.459 Y137.147 E3.57663
G1 X53.680 Y135.831 E3.61885
G1 X54.008 Y136.182 E3.63017
G1 X53.478 Y136.766 E3.64871
G1 X53.275 Y137.109 E3.65808
G1 X53.194 Y137.349 E3.66404
G1 X53.158 Y137.586 E3.66968
G1 X53.163 Y137.823 E3.67526
G1 X53.209 Y138.061 E3.68095
G1 X53.290 Y138.299 E3.68687
G1 X53.409 Y138.534 E3.69307
G1 X53.720 Y138.966 E3.70558
G1 X56.423 Y141.905 E3.79947
G1 X56.559 Y142.106 E3.80518
G1 X56.666 Y142.312 E3.81063
G1 X56.744 Y142.522 E3.81591
G1 X56.795 Y142.741 E3.82120
G1 X56.820 Y142.970 E3.82661
G1 X56.819 Y143.204 E3.83212
G1 X56.786 Y143.452 E3.83800
G1 X56.722 Y143.717 E3.84441
G1 X56.624 Y143.999 E3.85143
G1 X56.493 Y144.296 E3.85907
G1 X56.264 Y144.724 E3.87047
G1 X55.906 Y145.172 F7800.000
G1 E1.87047 F2400.00000
G92 E0
G1 X64.673 Y142.768 F7800.000
G1 E2.00000 F2400.00000
G1 F1800
G1 X65.032 Y143.081 E2.01323
G1 X65.367 Y143.322 E2.02471
G1 X65.728 Y143.529 E2.03627
G1 X66.278 Y143.740 E2.05262
G1 X66.714 Y143.806 E2.06489
G1 X66.990 Y143.792 E2.07255
G1 X66.813 Y143.920 E2.07863
G1 X66.433 Y144.146 E2.09089
G1 X66.092 Y144.305 E2.10135
G1 X65.784 Y144.402 E2.11031
G1 X65.413 Y144.460 E2.12076
G1 X65.174 Y144.443 E2.12742
G1 X65.036 Y144.406 E2.13138
G1 X64.797 Y144.282 E2.13886
G1 X64.636 Y144.136 E2.14489
G1 X64.530 Y144.007 E2.14953
G1 X64.406 Y143.767 E2.15704
G1 X64.373 Y143.537 E2.16348
G1 X64.387 Y143.408 E2.16710
G1 X64.506 Y143.062 E2.17725
G1 X64.632 Y142.831 E2.18457
G1 E0.18457 F2400.00000
G92 E0
G1 X64.194 Y138.156 F7800.000
G1 E2.00000 F2400.00000
G1 F1800
G1 X64.446 Y137.613 E2.01662
G1 X64.763 Y137.965 E2.02979
G1 X64.509 Y138.023 E2.03703
G1 X64.263 Y138.127 E2.04444
G1 E0.04444 F2400.00000
G92 E0
G1 X67.706 Y138.230 F7800.000
G1 E2.00000 F2400.00000
G1 F1800
G1 X68.103 Y138.379 E2.01179
G1 X68.349 Y138.538 E2.01992
G1 X68.538 Y138.717 E2.02717
G1 X68.735 Y138.962 E2.03590
G1 X68.886 Y139.265 E2.04531
G1 X68.953 Y139.501 E2.05212
G1 X68.976 Y139.673 E2.05692
G1 X68.605 Y139.147 E2.07480
G1 X68.148 Y138.643 E2.09369
G1 X67.691 Y138.242 E2.11058
G1 X65.853 Y137.963 F7800.000
G1 F1800
G1 X66.348 Y137.777 E2.12525
G1 X66.673 Y137.690 E2.13460
G1 X66.984 Y137.638 E2.14336
G1 X67.285 Y137.620 E2.15172
G1 X67.570 Y137.636 E2.15967
G1 X67.839 Y137.684 E2.16725
G1 X68.104 Y137.767 E2.17498
G1 X68.364 Y137.881 E2.18285
G1 X68.714 Y138.111 E2.19448
G1 X68.952 Y138.336 E2.20358
G1 X69.193 Y138.636 E2.21428
G1 X69.414 Y139.069 E2.22777
G1 X69.504 Y139.388 E2.23697
G1 X69.548 Y139.725 E2.24642
G1 X69.522 Y140.251 E2.26106
G1 X69.428 Y140.648 E2.27239
G1 X69.279 Y141.055 E2.28444
G1 X68.992 Y141.614 E2.30187
G1 X68.999 Y141.486 E2.30541
G1 X68.963 Y141.135 E2.31521
G1 X68.882 Y140.792 E2.32501
G1 X68.760 Y140.456 E2.33492
G1 X68.600 Y140.130 E2.34503
G1 X68.403 Y139.815 E2.35533
G1 X68.171 Y139.504 E2.36613
G1 X67.752 Y139.041 E2.38348
G1 X67.393 Y138.718 E2.39688
G1 X66.849 Y138.335 E2.41536
G1 X66.444 Y138.133 E2.42794
G1 X66.020 Y137.987 E2.44040
G1 X65.928 Y137.974 E2.44299
G1 E0.44299 F2400.00000
G92 E0
G1 X64.696 Y134.398 F7800.000
G1 E2.00000 F2400.00000
G1 F1800
G1 X64.336 Y133.885 E2.01740
G1 X63.732 Y133.266 E2.04143
G1 X63.459 Y133.032 E2.05141
G1 X62.977 Y132.688 E2.06787
G1 X62.634 Y132.510 E2.07860
G1 X62.985 Y132.559 E2.08846
G1 X63.288 Y132.657 E2.09731
G1 X63.619 Y132.841 E2.10781
G1 X63.996 Y133.146 E2.12128
G1 X64.182 Y133.333 E2.12861
G1 X64.408 Y133.611 E2.13857
G1 X64.545 Y133.847 E2.14615
G1 X64.635 Y134.093 E2.15343
G1 X64.684 Y134.324 E2.15998
G1 E0.15998 F2400.00000
G92 E0
G1 X64.660 Y136.677 F7800.000
G1 E2.00000 F2400.00000
G1 F1800
G1 X64.682 Y136.338 E2.00942
G1 X64.650 Y135.887 E2.02197
G1 X64.555 Y135.444 E2.03456
G1 X64.395 Y135.021 E2.04713
G1 X64.180 Y134.624 E2.05967
G1 X63.906 Y134.248 E2.07259
G1 X63.348 Y133.676 E2.09480
G1 X63.113 Y133.474 E2.10341
G1 X62.684 Y133.168 E2.11805
G1 X62.242 Y132.940 E2.13184
G1 X61.803 Y132.789 E2.14476
G1 X61.374 Y132.717 E2.15685
G1 X61.102 Y132.710 E2.16440
G1 X60.508 Y132.793 E2.18106
G1 X60.309 Y132.874 E2.18700
G1 X60.690 Y132.585 E2.20027
G1 X61.136 Y132.318 E2.21471
G1 X61.581 Y132.122 E2.22823
G1 X62.036 Y131.989 E2.24137
G1 X62.213 Y131.960 E2.24638
G1 X62.645 Y131.946 E2.25837
G1 X63.097 Y132.009 E2.27105
G1 X63.297 Y132.062 E2.27681
G1 X63.718 Y132.243 E2.28953
G1 X64.155 Y132.540 E2.30420
G1 X64.600 Y132.957 E2.32114
G1 X64.871 Y133.292 E2.33311
G1 X65.055 Y133.608 E2.34328
G1 X65.175 Y133.938 E2.35303
G1 X65.248 Y134.277 E2.36267
G1 X65.280 Y134.622 E2.37229
G1 X65.272 Y134.946 E2.38129
G1 X65.171 Y135.482 E2.39644
G1 X65.066 Y135.820 E2.40626
G1 X64.838 Y136.353 E2.42238
G1 X64.696 Y136.611 E2.43054
G1 E0.43054 F2400.00000
G92 E0
G1 X58.532 Y137.602 F7800.000
G1 E2.00000 F2400.00000
G1 F1800
G1 X58.421 Y137.586 E2.00311
G1 X58.286 Y137.527 E2.00721
G1 X58.165 Y137.435 E2.01142
G1 X58.005 Y137.244 E2.01836
G1 X57.928 Y137.101 E2.02285
G1 X57.869 Y136.929 E2.02792
G1 X57.835 Y136.619 E2.03659
G1 X57.857 Y136.337 E2.04444
G1 X57.920 Y136.037 E2.05295
G1 X58.103 Y135.560 E2.06713
G1 X58.065 Y135.985 E2.07898
G1 X58.080 Y136.234 E2.08591
G1 X58.142 Y136.629 E2.09702
G1 X58.261 Y137.029 E2.10861
G1 X58.494 Y137.537 E2.12414
G1 E0.12414 F2400.00000
G92 E0
G1 X64.890 Y137.333 F7800.000
G1 E2.00000 F2400.00000
G1 F1800
G1 X65.205 Y137.681 E2.01104
G1 X65.830 Y137.407 E2.02710
G1 X66.196 Y137.281 E2.03621
G1 X66.563 Y137.183 E2.04513
G1 X66.926 Y137.123 E2.05378
G1 X67.284 Y137.101 E2.06220
G1 X67.630 Y137.121 E2.07037
G1 X67.962 Y137.180 E2.07829
G1 X68.286 Y137.281 E2.08628
G1 X68.605 Y137.421 E2.09447
G1 X69.050 Y137.716 E2.10703
G1 X69.333 Y137.984 E2.11619
G1 X69.616 Y138.336 E2.12679
G1 X69.723 Y138.507 E2.13154
G1 X69.900 Y138.887 E2.14142
G1 X70.013 Y139.283 E2.15108
G1 X70.067 Y139.695 E2.16087
G1 X70.059 Y140.131 E2.17111
G1 X70.033 Y140.343 E2.17614
G1 X69.925 Y140.798 E2.18712
G1 X69.756 Y141.260 E2.19869
G1 X69.521 Y141.737 E2.21120
G1 X69.383 Y141.971 E2.21759
G1 X69.055 Y142.454 E2.23132
G1 X68.441 Y143.187 E2.25381
G1 X67.980 Y143.650 E2.26916
G1 X67.532 Y144.038 E2.28311
G1 X67.098 Y144.353 E2.29572
G1 X66.675 Y144.605 E2.30728
G1 X66.280 Y144.788 E2.31753
G1 X65.910 Y144.906 E2.32665
G1 X65.558 Y144.971 E2.33508
G1 X65.410 Y144.979 E2.33857
G1 X65.099 Y144.957 E2.34588
G1 X64.841 Y144.887 E2.35217
G1 X64.582 Y144.761 E2.35894
G1 X64.478 Y144.691 E2.36189
G1 X64.260 Y144.495 E2.36880
G1 X64.107 Y144.307 E2.37449
G1 X63.990 Y144.117 E2.37974
G1 X63.911 Y143.925 E2.38462
G1 X63.865 Y143.728 E2.38938
G1 X63.854 Y143.525 E2.39417
G1 X63.876 Y143.312 E2.39920
G1 X63.938 Y143.085 E2.40473
G1 X64.036 Y142.843 E2.41086
G1 X64.169 Y142.592 E2.41755
G1 X64.340 Y142.330 E2.42490
G1 X64.548 Y142.059 E2.43294
G1 X64.604 Y141.995 E2.43495
G1 X64.798 Y142.190 E2.44141
G1 X65.354 Y142.675 E2.45876
G1 X65.648 Y142.886 E2.46728
G1 X65.951 Y143.060 E2.47549
G1 X66.410 Y143.236 E2.48707
G1 X66.740 Y143.286 E2.49490
G1 X67.061 Y143.269 E2.50247
G1 X67.382 Y143.190 E2.51025
G1 X67.691 Y143.019 E2.51856
G1 X67.970 Y142.770 E2.52735
G1 X68.157 Y142.541 E2.53430
G1 X68.303 Y142.299 E2.54093
G1 X68.407 Y142.043 E2.54744
G1 X68.465 Y141.775 E2.55388
G1 X68.480 Y141.500 E2.56036
G1 X68.451 Y141.221 E2.56694
G1 X68.385 Y140.939 E2.57375
G1 X68.283 Y140.660 E2.58075
G1 X68.147 Y140.382 E2.58803
G1 X67.975 Y140.108 E2.59563
G1 X67.771 Y139.833 E2.60369
G1 X67.385 Y139.408 E2.61718
G1 X67.070 Y139.124 E2.62717
G1 X66.583 Y138.781 E2.64116
G1 X66.243 Y138.612 E2.65008
G1 X65.896 Y138.493 E2.65871
G1 X65.379 Y138.416 E2.67101
G1 X65.020 Y138.438 E2.67948
G1 X64.668 Y138.518 E2.68795
G1 X64.325 Y138.663 E2.69672
G1 X63.996 Y138.874 E2.70590
G1 X63.681 Y139.142 E2.71562
G1 X62.866 Y140.010 E2.74363
G1 X62.424 Y139.536 E2.75885
G1 X63.235 Y138.660 E2.78691
G1 X63.649 Y138.091 E2.80348
G1 X63.937 Y137.504 E2.81883
G1 X64.064 Y137.111 E2.82856
G1 X64.138 Y136.724 E2.83782
G1 X64.163 Y136.340 E2.84686
G1 X64.136 Y135.960 E2.85581
G1 X64.057 Y135.591 E2.86469
G1 X63.923 Y135.236 E2.87360
G1 X63.741 Y134.901 E2.88257
G1 X63.510 Y134.583 E2.89182
G1 X62.993 Y134.054 E2.90920
G1 X62.793 Y133.882 E2.91541
G1 X62.413 Y133.611 E2.92639
G1 X62.038 Y133.417 E2.93630
G1 X61.675 Y133.293 E2.94534
G1 X61.324 Y133.234 E2.95371
G1 X61.131 Y133.228 E2.95824
G1 X60.643 Y133.297 E2.96983
G1 X60.181 Y133.484 E2.98156
G1 X59.781 Y133.760 E2.99297
G1 X59.418 Y134.100 E3.00466
G1 X59.073 Y134.529 E3.01763
G1 X58.887 Y134.839 E3.02612
G1 X58.741 Y135.163 E3.03448
G1 X58.615 Y135.648 E3.04625
G1 X58.584 Y135.993 E3.05440
G1 X58.595 Y136.179 E3.05877
G1 X58.648 Y136.515 E3.06677
G1 X58.749 Y136.853 E3.07508
G1 X58.892 Y137.191 E3.08371
G1 X59.088 Y137.530 E3.09291
G1 X59.302 Y137.799 E3.10099
G1 X58.974 Y138.014 E3.11021
G1 X58.758 Y138.095 E3.11564
G1 X58.532 Y138.124 E3.12100
G1 X58.394 Y138.113 E3.12425
G1 X58.254 Y138.079 E3.12765
G1 X58.022 Y137.976 E3.13361
G1 X57.806 Y137.813 E3.13998
G1 X57.573 Y137.535 E3.14850
G1 X57.452 Y137.309 E3.15454
G1 X57.363 Y137.051 E3.16095
G1 X57.316 Y136.606 E3.17147
G1 X57.343 Y136.263 E3.17956
G1 X57.420 Y135.898 E3.18833
G1 X57.557 Y135.503 E3.19816
G1 X57.758 Y135.079 E3.20919
G1 X58.178 Y134.385 E3.22828
G1 X58.546 Y133.898 E3.24263
G1 X58.995 Y133.387 E3.25862
G1 X59.447 Y132.933 E3.27370
G1 X59.917 Y132.521 E3.28837
G1 X60.400 Y132.155 E3.30263
G1 X60.898 Y131.858 E3.31626
G1 X61.403 Y131.634 E3.32927
G1 X61.920 Y131.484 E3.34192
G1 X62.162 Y131.443 E3.34769
G1 X62.673 Y131.427 E3.35970
G1 X63.200 Y131.500 E3.37222
G1 X63.454 Y131.568 E3.37842
G1 X63.714 Y131.664 E3.38491
G1 X63.969 Y131.789 E3.39159
G1 X64.224 Y131.947 E3.39864
G1 X64.480 Y132.136 E3.40612
G1 X64.985 Y132.610 E3.42243
G1 X65.299 Y132.997 E3.43413
G1 X65.526 Y133.388 E3.44477
G1 X65.674 Y133.794 E3.45494
G1 X65.761 Y134.199 E3.46466
G1 X65.799 Y134.604 E3.47424
G1 X65.789 Y135.001 E3.48357
G1 X65.675 Y135.607 E3.49808
G1 X65.553 Y135.999 E3.50772
G1 X65.304 Y136.580 E3.52259
G1 X64.927 Y137.267 E3.54102
G1 X64.584 Y137.688 F7800.000
G1 E1.54102 F2400.00000
G92 E0
G1 X67.723 Y131.945 F7800.000
G1 E2.00000 F2400.00000
G1 F1800
G1 X67.422 Y131.622 E2.01225
G1 X69.763 Y129.112 E2.10760
G1 X70.065 Y129.435 E2.11988
G1 X67.774 Y131.890 E2.21314
G1 X67.723 Y132.704 F7800.000
G1 F1800
G1 X66.714 Y131.622 E2.24792
G1 X69.763 Y128.352 E2.35305
G1 X70.773 Y129.435 E2.38786
G1 X67.774 Y132.649 E2.49122
G1 X67.550 Y132.235 F7800.000
G1 E0.49122 F2400.00000
G92 E0
G1 X71.303 Y121.417 F7800.000
G1 E2.00000 F2400.00000
G1 F1800
G1 X72.462 Y120.193 E2.03963
G1 X72.964 Y119.793 E2.05474
G1 X73.237 Y119.628 E2.06223
G1 X73.513 Y119.492 E2.06946
G1 X74.048 Y119.313 E2.08274
G1 X74.382 Y119.254 E2.09070
G1 X74.678 Y119.230 E2.09769
G1 X74.993 Y119.232 E2.10511
G1 X75.612 Y119.317 E2.11978
G1 X76.238 Y119.511 E2.13519
G1 X76.863 Y119.798 E2.15136
G1 X77.184 Y119.981 E2.16006
G1 X77.815 Y120.401 E2.17787
G1 X78.459 Y120.914 E2.19724
G1 X79.095 Y121.507 E2.21769
G1 X79.417 Y121.842 E2.22861
G1 X80.011 Y122.521 E2.24984
G1 X80.516 Y123.189 E2.26951
G1 X80.928 Y123.844 E2.28772
G1 X81.248 Y124.488 E2.30463
G1 X81.473 Y125.122 E2.32046
G1 X81.603 Y125.746 E2.33543
G1 X81.639 Y126.357 E2.34982
G1 X81.578 Y126.953 E2.36390
G1 X81.424 Y127.531 E2.37798
G1 X81.177 Y128.091 E2.39237
G1 X80.839 Y128.629 E2.40730
G1 X80.418 Y129.138 E2.42284
G1 X79.461 Y130.163 E2.45582
G1 X71.354 Y121.471 E2.73531
G1 X70.933 Y121.079 F7800.000
G1 E0.73531 F2400.00000
G92 E0
G1 X76.679 Y118.498 F7800.000
G1 E2.00000 F2400.00000
G1 F1800
G1 X76.990 Y118.523 E2.00865
G1 X77.587 Y118.647 E2.02560
G1 X78.202 Y118.877 E2.04385
G1 X78.856 Y119.227 E2.06445
G1 X79.176 Y119.437 E2.07507
G1 X79.497 Y119.675 E2.08617
G1 X80.137 Y120.236 E2.10982
G1 X80.766 Y120.912 E2.13545
G1 X81.045 Y121.261 E2.14786
G1 X81.507 Y121.950 E2.17091
G1 X81.691 Y122.288 E2.18160
G1 X81.973 Y122.956 E2.20176
G1 X82.151 Y123.613 E2.22066
G1 X82.208 Y123.996 E2.23141
G1 X81.870 Y123.316 E2.25249
G1 X81.404 Y122.575 E2.27681
G1 X80.849 Y121.840 E2.30240
G1 X80.212 Y121.113 E2.32925
G1 X79.853 Y120.738 E2.34366
G1 X79.173 Y120.104 E2.36950
G1 X78.440 Y119.521 E2.39549
G1 X77.751 Y119.062 E2.41852
G1 X77.355 Y118.837 E2.43115
G1 X76.623 Y118.501 E2.45353
G1 E0.45353 F2400.00000
G92 E0
G1 X73.738 Y118.864 F7800.000
G1 E2.00000 F2400.00000
G1 F1800
G1 X74.258 Y118.532 E2.01714
G1 X74.608 Y118.356 E2.02802
G1 X74.962 Y118.213 E2.03863
G1 X75.316 Y118.098 E2.04897
G1 X75.667 Y118.015 E2.05899
G1 X76.016 Y117.960 E2.06880
G1 X76.362 Y117.934 E2.07844
G1 X77.058 Y117.966 E2.09778
G1 X77.400 Y118.022 E2.10742
G1 X77.743 Y118.107 E2.11724
G1 X78.089 Y118.222 E2.12737
G1 X78.437 Y118.367 E2.13783
G1 X78.793 Y118.546 E2.14890
G1 X79.149 Y118.748 E2.16026
G1 X79.844 Y119.234 E2.18382
G1 X80.528 Y119.834 E2.20910
G1 X81.195 Y120.550 E2.23628
G1 X81.492 Y120.922 E2.24952
G1 X81.758 Y121.295 E2.26223
G1 X81.991 Y121.666 E2.27441
G1 X82.193 Y122.036 E2.28611
G1 X82.364 Y122.406 E2.29744
G1 X82.504 Y122.774 E2.30836
G1 X82.616 Y123.140 E2.31900
G1 X82.702 Y123.505 E2.32940
G1 X82.759 Y123.865 E2.33955
G1 X82.791 Y124.225 E2.34958
G1 X82.796 Y124.581 E2.35948
G1 X82.772 Y124.941 E2.36949
G1 X82.721 Y125.304 E2.37968
G1 X82.646 Y125.666 E2.38994
G1 X82.543 Y126.027 E2.40038
G1 X82.416 Y126.382 E2.41084
G1 X82.066 Y127.136 E2.43394
G1 X82.090 Y127.046 E2.43653
G1 X82.158 Y126.368 E2.45545
G1 X82.118 Y125.678 E2.47467
G1 X81.973 Y124.982 E2.49441
G1 X81.725 Y124.286 E2.51494
G1 X81.381 Y123.591 E2.53649
G1 X80.942 Y122.894 E2.55935
G1 X80.413 Y122.194 E2.58372
G1 X79.799 Y121.492 E2.60964
G1 X79.459 Y121.138 E2.62327
G1 X78.802 Y120.525 E2.64824
G1 X78.115 Y119.979 E2.67261
G1 X77.456 Y119.539 E2.69460
G1 X77.099 Y119.337 E2.70601
G1 X76.423 Y119.026 E2.72667
G1 X75.724 Y118.809 E2.74700
G1 X75.030 Y118.714 E2.76646
G1 X74.659 Y118.712 E2.77678
G1 X74.316 Y118.740 E2.78633
G1 X73.810 Y118.843 E2.80068
G1 E0.80068 F2400.00000
G92 E0
G1 X70.864 Y122.528 F7800.000
G1 E2.00000 F2400.00000
G1 F1800
G1 X78.416 Y130.625 E2.30758
G1 X78.133 Y130.928 E2.31910
G1 X78.029 Y130.740 E2.32509
G1 X77.699 Y130.341 E2.33947
G1 X71.287 Y123.467 E2.60059
G1 X70.805 Y123.025 E2.61874
G1 X70.547 Y122.867 E2.62715
G1 X70.812 Y122.583 E2.63797
G1 X70.864 Y121.705 F7800.000
G1 F1800
G1 X79.183 Y130.625 E2.97678
G1 X77.930 Y131.968 E3.02782
G1 X77.830 Y131.537 E3.04013
G1 X77.563 Y131.058 E3.05536
G1 X77.277 Y130.711 E3.06784
G1 X70.892 Y123.865 E3.32789
G1 X70.466 Y123.475 E3.34392
G1 X70.103 Y123.254 E3.35574
G1 X69.716 Y123.114 E3.36718
G1 X69.558 Y123.105 E3.37157
G1 X70.812 Y121.760 E3.42266
G1 E1.42266 F2400.00000
G92 E0
G1 X68.246 Y124.434 F7800.000
G1 E2.00000 F2400.00000
G1 F1800
G1 X67.928 Y124.093 E2.01096
G1 X72.107 Y119.613 E2.15501
G1 X72.484 Y119.230 E2.16765
G1 X72.861 Y118.886 E2.17966
G1 X73.241 Y118.580 E2.19113
G1 X73.622 Y118.311 E2.20210
G1 X74.007 Y118.079 E2.21268
G1 X74.394 Y117.884 E2.22285
G1 X74.785 Y117.726 E2.23278
G1 X75.176 Y117.599 E2.24245
G1 X75.567 Y117.506 E2.25189
G1 X75.957 Y117.445 E2.26116
G1 X76.345 Y117.416 E2.27032
G1 X76.728 Y117.420 E2.27932
G1 X77.121 Y117.451 E2.28859
G1 X77.504 Y117.515 E2.29774
G1 X77.887 Y117.609 E2.30701
G1 X78.271 Y117.737 E2.31651
G1 X78.653 Y117.896 E2.32625
G1 X79.037 Y118.090 E2.33637
G1 X79.419 Y118.306 E2.34668
G1 X79.794 Y118.552 E2.35722
G1 X80.164 Y118.826 E2.36806
G1 X80.889 Y119.462 E2.39074
G1 X81.243 Y119.824 E2.40264
G1 X81.591 Y120.216 E2.41497
G1 X81.906 Y120.610 E2.42682
G1 X82.188 Y121.006 E2.43827
G1 X82.439 Y121.404 E2.44932
G1 X82.656 Y121.803 E2.46001
G1 X82.841 Y122.206 E2.47042
G1 X82.994 Y122.605 E2.48048
G1 X83.116 Y123.005 E2.49031
G1 X83.210 Y123.404 E2.49995
G1 X83.274 Y123.802 E2.50942
G1 X83.308 Y124.199 E2.51879
G1 X83.314 Y124.595 E2.52811
G1 X83.287 Y124.994 E2.53751
G1 X83.232 Y125.393 E2.54698
G1 X83.149 Y125.790 E2.55652
G1 X83.036 Y126.186 E2.56620
G1 X82.895 Y126.579 E2.57601
G1 X82.523 Y127.380 E2.59678
G1 X82.300 Y127.771 E2.60736
G1 X82.045 Y128.162 E2.61834
G1 X81.451 Y128.936 E2.64128
G1 X81.108 Y129.321 E2.65341
G1 X76.956 Y133.773 E2.79656
G1 X76.628 Y133.421 E2.80786
G1 X77.154 Y132.844 E2.82622
G1 X77.321 Y132.581 E2.83355
G1 X77.401 Y132.343 E2.83945
G1 X77.424 Y132.076 E2.84576
G1 X77.342 Y131.725 E2.85423
G1 X77.134 Y131.351 E2.86429
G1 X76.888 Y131.053 E2.87338
G1 X70.527 Y124.234 E3.09267
G1 X70.153 Y123.891 E3.10458
G1 X69.878 Y123.723 E3.11217
G1 X69.611 Y123.627 E3.11883
G1 X69.350 Y123.612 E3.12499
G1 X69.101 Y123.667 E3.13097
G1 X68.889 Y123.792 E3.13677
G1 X68.708 Y123.944 E3.14233
G1 X68.297 Y124.379 E3.15640
G1 X68.136 Y123.981 F7800.000
G1 E1.15640 F2400.00000
G92 E0
G1 X85.923 Y120.275 F7800.000
G1 E2.00000 F2400.00000
G1 F1800
G1 X85.932 Y120.146 E2.00359
G1 X85.977 Y120.059 E2.00630
G1 X86.141 Y119.937 E2.01197
G1 X86.364 Y119.876 E2.01841
G1 X86.639 Y119.840 E2.02610
G1 X87.048 Y119.840 E2.03748
G1 X86.672 Y119.962 E2.04847
G1 X85.990 Y120.242 E2.06894
G1 E0.06894 F2400.00000
G92 E0
G1 X89.776 Y118.548 F7800.000
G1 E2.00000 F2400.00000
G1 F1800
G1 X82.847 Y111.119 E2.28217
G1 X82.523 Y110.805 E2.29470
G1 X82.240 Y110.587 E2.30463
G1 X82.084 Y110.498 E2.30963
G1 X82.337 Y110.226 E2.31993
G1 X82.820 Y110.848 E2.34179
G1 X89.889 Y118.426 E2.62967
G1 X89.827 Y118.493 E2.63219
G1 X89.864 Y119.276 F7800.000
G1 F1800
G1 X89.712 Y119.301 E2.63648
G1 X82.447 Y111.512 E2.93234
G1 X82.156 Y111.230 E2.94361
G1 X81.928 Y111.055 E2.95159
G1 X81.536 Y110.831 E2.96412
G1 X81.123 Y110.706 E2.97613
G1 X82.535 Y109.192 E3.03364
G1 X82.618 Y109.548 E3.04381
G1 X82.834 Y109.967 E3.05691
G1 X83.244 Y110.481 E3.07516
G1 X90.656 Y118.426 E3.37698
G1 X89.915 Y119.221 E3.40716
G1 X89.167 Y119.476 F7800.000
G1 F1800
G1 X82.077 Y111.875 E3.65157
G1 X81.816 Y111.623 E3.66012
G1 X81.640 Y111.487 E3.66535
G1 X81.330 Y111.310 E3.67374
G1 X81.065 Y111.230 E3.68025
G1 X80.796 Y111.253 E3.68659
G1 X80.556 Y111.350 E3.69269
G1 X80.233 Y111.603 E3.70234
G1 X79.290 Y112.611 E3.73480
G1 X78.964 Y112.261 E3.74605
G1 X84.025 Y106.834 E3.92054
G1 X84.352 Y107.184 E3.93181
G1 X83.385 Y108.224 E3.96519
G1 X83.155 Y108.549 E3.97457
G1 X83.060 Y108.825 E3.98141
G1 X83.046 Y109.105 E3.98801
G1 X83.108 Y109.368 E3.99436
G1 X83.271 Y109.684 E4.00273
G1 X83.637 Y110.142 E4.01650
G1 X91.364 Y118.426 E4.28289
G1 X90.123 Y119.758 E4.32570
G1 X88.231 Y120.072 E4.37080
G1 X87.408 Y120.268 E4.39069
G1 X86.846 Y120.450 E4.40458
G1 X86.354 Y120.642 E4.41699
G1 X85.924 Y120.850 E4.42823
G1 X85.673 Y120.998 E4.43508
G1 X85.520 Y120.754 E4.44185
G1 X85.424 Y120.459 E4.44915
G1 X85.399 Y120.265 E4.45375
G1 X85.424 Y120.027 E4.45938
G1 X85.481 Y119.872 E4.46328
G1 X85.573 Y119.729 E4.46726
G1 X85.722 Y119.584 E4.47214
G1 X85.919 Y119.466 E4.47755
G1 X86.271 Y119.366 E4.48616
G1 X86.605 Y119.322 E4.49407
G1 X87.429 Y119.322 E4.51344
G1 X89.092 Y119.470 E4.55271
G1 X89.610 Y119.245 F7800.000
G1 E2.55271 F2400.00000
G92 E0
G1 X92.476 Y101.956 F7800.000
G1 E2.00000 F2400.00000
G1 F1800
G1 X96.633 Y111.094 E2.27884
G1 X96.610 Y111.118 E2.27978
G1 X92.077 Y101.181 E2.58319
G1 X92.856 Y101.602 E2.60779
G1 X92.531 Y101.905 E2.62014
G1 X93.154 Y102.091 F7800.000
G1 F1800
G1 X97.299 Y111.202 E2.89819
G1 X95.419 Y113.217 E2.97474
G1 X95.398 Y113.024 E2.98015
G1 X95.212 Y112.565 E2.99389
G1 X95.136 Y112.444 E2.99787
G1 X96.257 Y111.695 E3.03530
G1 X90.982 Y100.134 E3.38827
G1 X91.095 Y100.014 E3.39286
G1 X93.809 Y101.479 E3.47853
G1 X93.209 Y102.040 E3.50136
G1 E1.50136 F2400.00000
G92 E0
G1 X87.571 Y103.792 F7800.000
G1 E2.00000 F2400.00000
G1 F1800
G1 X87.597 Y104.063 E2.00757
G1 X87.694 Y104.384 E2.01686
G1 X87.838 Y104.640 E2.02503
G1 X87.658 Y104.520 E2.03106
G1 X87.306 Y104.371 E2.04166
G1 X87.067 Y104.333 E2.04839
G1 X87.520 Y103.847 E2.06684
G1 E0.06684 F2400.00000
G92 E0
G1 X95.393 Y96.229 F7800.000
G1 E2.00000 F2400.00000
G1 F1800
G1 X95.692 Y95.908 E2.01220
G1 X95.768 Y96.041 E2.01646
G1 X96.177 Y96.539 E2.03436
G1 X102.518 Y103.338 E2.29262
G1 X102.872 Y103.684 E2.30637
G1 X103.267 Y103.980 E2.32009
G1 X103.013 Y104.253 E2.33044
G1 X96.002 Y96.736 E2.61599
G1 X95.669 Y96.424 E2.62865
G1 X95.454 Y96.272 E2.63597
G1 E0.63597 F2400.00000
G92 E0
G1 X102.574 Y104.604 F7800.000
G1 E2.00000 F2400.00000
G1 F1800
G1 X95.604 Y97.132 E2.28384
G1 X95.314 Y96.860 E2.29489
G1 X95.065 Y96.685 E2.30334
G1 X94.717 Y96.523 E2.31400
G1 X94.407 Y96.463 E2.32277
G1 X95.895 Y94.867 E2.38338
G1 X95.900 Y94.957 E2.38588
G1 X96.020 Y95.350 E2.39729
G1 X96.232 Y95.723 E2.40919
G1 X96.599 Y96.170 E2.42526
G1 X102.920 Y102.946 E2.68267
G1 X103.238 Y103.257 E2.69504
G1 X103.598 Y103.527 E2.70754
G1 X104.103 Y103.729 E2.72263
G1 X104.267 Y103.731 E2.72720
G1 X102.376 Y105.759 E2.80423
G1 X101.886 Y105.495 E2.81968
G1 X102.528 Y104.664 E2.84885
G1 X101.895 Y104.636 F7800.000
G1 F1800
G1 X95.237 Y97.498 E3.07837
G1 X94.986 Y97.262 E3.08646
G1 X94.805 Y97.135 E3.09167
G1 X94.556 Y97.019 E3.09812
G1 X94.359 Y96.981 E3.10284
G1 X94.103 Y97.008 E3.10888
G1 X93.923 Y97.074 E3.11342
G1 X93.685 Y97.220 E3.11998
G1 X93.351 Y97.551 E3.13102
G1 X93.017 Y97.194 E3.14253
G1 X96.855 Y93.079 E3.27483
G1 X97.182 Y93.430 E3.28610
G1 X96.704 Y93.948 E3.30267
G1 X96.567 Y94.136 E3.30814
G1 X96.456 Y94.351 E3.31384
G1 X96.400 Y94.596 E3.31975
G1 X96.414 Y94.867 E3.32612
G1 X96.499 Y95.143 E3.33293
G1 X96.660 Y95.428 E3.34062
G1 X96.989 Y95.828 E3.35279
G1 X103.290 Y102.584 E3.57003
G1 X103.576 Y102.863 E3.57942
G1 X103.854 Y103.072 E3.58760
G1 X104.205 Y103.212 E3.59649
G1 X104.549 Y103.217 E3.60458
G1 X104.789 Y103.126 E3.61061
G1 X105.098 Y102.910 E3.61947
G1 X105.574 Y102.408 E3.63574
G1 X105.892 Y102.749 E3.64671
G1 X102.482 Y106.404 E3.76426
G1 X94.120 Y101.896 E3.98762
G1 X93.779 Y102.215 E3.99860
G1 X97.914 Y111.303 E4.23335
G1 X94.454 Y115.012 E4.35262
G1 X94.136 Y114.671 E4.36358
G1 X94.613 Y114.154 E4.38012
G1 X94.741 Y113.959 E4.38560
G1 X94.868 Y113.687 E4.39265
G1 X94.922 Y113.435 E4.39872
G1 X94.891 Y113.152 E4.40542
G1 X94.749 Y112.802 E4.41431
G1 X94.626 Y112.604 E4.41979
G1 X94.386 Y112.313 E4.42865
G1 X87.950 Y105.413 E4.65051
G1 X87.680 Y105.157 E4.65927
G1 X87.411 Y104.978 E4.66687
G1 X87.162 Y104.873 E4.67322
G1 X86.972 Y104.842 E4.67774
G1 X86.784 Y104.857 E4.68219
G1 X86.495 Y104.966 E4.68945
G1 X86.300 Y105.113 E4.69519
G1 X85.754 Y105.685 E4.71379
G1 X85.426 Y105.333 E4.72511
G1 X88.314 Y102.236 E4.82468
G1 X88.643 Y102.588 E4.83601
G1 X88.321 Y102.994 E4.84818
G1 X88.175 Y103.258 E4.85527
G1 X88.109 Y103.454 E4.86015
G1 X88.079 Y103.665 E4.86514
G1 X88.108 Y103.963 E4.87218
G1 X88.173 Y104.179 E4.87751
G1 X88.350 Y104.493 E4.88598
G1 X88.610 Y104.812 E4.89564
G1 X95.143 Y111.816 E5.12088
G1 X95.603 Y111.509 E5.13387
G1 X90.368 Y100.034 E5.43045
G1 X90.989 Y99.368 E5.45188
G1 X101.558 Y105.073 E5.73428
G1 X101.849 Y104.695 E5.74549
G1 X102.364 Y104.464 F7800.000
G1 E3.74549 F2400.00000
G92 E0
G1 X106.538 Y99.905 F7800.000
G1 E2.00000 F2400.00000
G1 F1800
G1 X106.302 Y99.782 E2.00739
G1 X106.141 Y99.636 E2.01343
G1 X105.958 Y99.382 E2.02212
G1 X105.885 Y99.154 E2.02877
G1 X105.892 Y98.907 E2.03565
G1 X105.935 Y98.750 E2.04015
G1 X106.011 Y98.563 E2.04577
G1 X106.178 Y98.268 E2.05519
G1 X106.536 Y98.579 E2.06839
G1 X106.871 Y98.822 E2.07987
G1 X107.220 Y99.022 E2.09106
G1 X107.597 Y99.182 E2.10242
G1 X107.989 Y99.280 E2.11364
G1 X108.239 Y99.304 E2.12063
G1 X108.495 Y99.291 E2.12775
G1 X108.318 Y99.420 E2.13382
G1 X107.939 Y99.645 E2.14607
G1 X107.596 Y99.804 E2.15657
G1 X107.160 Y99.932 E2.16918
G1 X106.900 Y99.958 E2.17645
G1 X106.610 Y99.927 E2.18456
G1 E0.18456 F2400.00000
G92 E0
G1 X105.716 Y93.649 F7800.000
G1 E2.00000 F2400.00000
G1 F1800
G1 X105.951 Y93.111 E2.01629
G1 X106.267 Y93.464 E2.02945
G1 X106.013 Y93.523 E2.03669
G1 X105.785 Y93.619 E2.04358
G1 E0.04358 F2400.00000
G92 E0
G1 X109.209 Y93.729 F7800.000
G1 E2.00000 F2400.00000
G1 F1800
G1 X109.609 Y93.880 E2.01188
G1 X109.783 Y93.986 E2.01755
G1 X109.956 Y94.130 E2.02379
G1 X110.141 Y94.329 E2.03134
G1 X110.306 Y94.570 E2.03946
G1 X110.383 Y94.737 E2.04456
G1 X110.458 Y95.001 E2.05218
G1 X110.481 Y95.171 E2.05696
G1 X110.108 Y94.644 E2.07489
G1 X109.653 Y94.143 E2.09367
G1 X109.200 Y93.743 E2.11047
G1 X107.367 Y93.459 F7800.000
G1 F1800
G1 X107.853 Y93.277 E2.12489
G1 X108.179 Y93.190 E2.13426
G1 X108.489 Y93.137 E2.14299
G1 X108.790 Y93.120 E2.15136
G1 X109.075 Y93.135 E2.15930
G1 X109.343 Y93.184 E2.16686
G1 X109.609 Y93.267 E2.17462
G1 X109.870 Y93.381 E2.18252
G1 X110.111 Y93.529 E2.19036
G1 X110.343 Y93.722 E2.19875
G1 X110.580 Y93.979 E2.20847
G1 X110.788 Y94.282 E2.21868
G1 X110.914 Y94.552 E2.22695
G1 X111.009 Y94.887 E2.23665
G1 X111.053 Y95.224 E2.24607
G1 X111.047 Y95.593 E2.25633
G1 X110.933 Y96.148 E2.27205
G1 X110.784 Y96.556 E2.28412
G1 X110.497 Y97.114 E2.30155
G1 X110.504 Y96.985 E2.30512
G1 X110.467 Y96.634 E2.31492
G1 X110.387 Y96.291 E2.32470
G1 X110.265 Y95.956 E2.33460
G1 X110.106 Y95.632 E2.34466
G1 X109.910 Y95.315 E2.35500
G1 X109.675 Y95.002 E2.36588
G1 X109.257 Y94.541 E2.38316
G1 X108.899 Y94.217 E2.39657
G1 X108.355 Y93.836 E2.41502
G1 X107.951 Y93.632 E2.42758
G1 X107.441 Y93.473 E2.44244
G1 E0.44244 F2400.00000
G92 E0
G1 X106.201 Y89.898 F7800.000
G1 E2.00000 F2400.00000
G1 F1800
G1 X105.842 Y89.385 E2.01739
G1 X105.235 Y88.764 E2.04151
G1 X104.962 Y88.531 E2.05148
G1 X104.483 Y88.189 E2.06783
G1 X104.134 Y88.007 E2.07875
G1 X104.263 Y88.018 E2.08234
G1 X104.658 Y88.107 E2.09358
G1 X104.793 Y88.157 E2.09758
G1 X105.124 Y88.340 E2.10809
G1 X105.288 Y88.462 E2.11378
G1 X105.701 Y88.849 E2.12950
G1 X105.913 Y89.110 E2.13883
G1 X106.050 Y89.347 E2.14645
G1 X106.140 Y89.593 E2.15370
G1 X106.189 Y89.824 E2.16027
G1 E0.16027 F2400.00000
G92 E0
G1 X106.165 Y92.176 F7800.000
G1 E2.00000 F2400.00000
G1 F1800
G1 X106.187 Y91.838 E2.00941
G1 X106.156 Y91.387 E2.02197
G1 X106.059 Y90.944 E2.03458
G1 X105.900 Y90.520 E2.04716
G1 X105.685 Y90.124 E2.05966
G1 X105.412 Y89.747 E2.07259
G1 X104.852 Y89.174 E2.09486
G1 X104.616 Y88.973 E2.10345
G1 X104.189 Y88.668 E2.11803
G1 X103.748 Y88.439 E2.13186
G1 X103.326 Y88.295 E2.14424
G1 X103.069 Y88.239 E2.15153
G1 X102.625 Y88.207 E2.16391
G1 X102.015 Y88.293 E2.18102
G1 X101.814 Y88.374 E2.18702
G1 X102.196 Y88.085 E2.20031
G1 X102.641 Y87.818 E2.21474
G1 X103.086 Y87.622 E2.22823
G1 X103.541 Y87.489 E2.24139
G1 X103.718 Y87.460 E2.24640
G1 X104.167 Y87.445 E2.25888
G1 X104.352 Y87.463 E2.26402
G1 X104.818 Y87.568 E2.27729
G1 X105.224 Y87.743 E2.28958
G1 X105.648 Y88.031 E2.30382
G1 X106.113 Y88.466 E2.32151
G1 X106.376 Y88.791 E2.33312
G1 X106.560 Y89.109 E2.34331
G1 X106.680 Y89.437 E2.35303
G1 X106.753 Y89.777 E2.36269
G1 X106.785 Y90.122 E2.37231
G1 X106.777 Y90.446 E2.38132
G1 X106.676 Y90.981 E2.39644
G1 X106.571 Y91.320 E2.40629
G1 X106.343 Y91.853 E2.42240
G1 X106.201 Y92.111 E2.43056
G1 E0.43056 F2400.00000
G92 E0
G1 X100.036 Y93.100 F7800.000
G1 E2.00000 F2400.00000
G1 F1800
G1 X99.874 Y93.069 E2.00458
G1 X99.670 Y92.934 E2.01137
G1 X99.509 Y92.743 E2.01830
G1 X99.434 Y92.602 E2.02275
G1 X99.375 Y92.428 E2.02785
G1 X99.340 Y92.118 E2.03650
G1 X99.362 Y91.837 E2.04436
G1 X99.425 Y91.537 E2.05287
G1 X99.608 Y91.061 E2.06704
G1 X99.570 Y91.484 E2.07885
G1 X99.585 Y91.734 E2.08581
G1 X99.647 Y92.130 E2.09694
G1 X99.766 Y92.528 E2.10849
G1 X99.999 Y93.035 E2.12399
G1 E0.12399 F2400.00000
G92 E0
G1 X106.396 Y92.832 F7800.000
G1 E2.00000 F2400.00000
G1 F1800
G1 X106.709 Y93.181 E2.01103
G1 X107.336 Y92.907 E2.02713
G1 X107.702 Y92.781 E2.03622
G1 X108.069 Y92.683 E2.04515
G1 X108.431 Y92.622 E2.05379
G1 X108.789 Y92.601 E2.06222
G1 X109.135 Y92.620 E2.07038
G1 X109.466 Y92.680 E2.07829
G1 X109.791 Y92.781 E2.08630
G1 X110.110 Y92.921 E2.09449
G1 X110.413 Y93.106 E2.10283
G1 X110.700 Y93.345 E2.11162
G1 X110.986 Y93.655 E2.12154
G1 X111.234 Y94.015 E2.13181
G1 X111.404 Y94.381 E2.14129
G1 X111.518 Y94.783 E2.15111
G1 X111.572 Y95.195 E2.16088
G1 X111.564 Y95.630 E2.17112
G1 X111.538 Y95.842 E2.17615
G1 X111.430 Y96.297 E2.18714
G1 X111.261 Y96.760 E2.19873
G1 X111.026 Y97.237 E2.21123
G1 X110.888 Y97.471 E2.21762
G1 X110.559 Y97.955 E2.23139
G1 X110.167 Y98.441 E2.24606
G1 X109.717 Y98.925 E2.26161
G1 X109.035 Y99.540 E2.28320
G1 X108.603 Y99.853 E2.29574
G1 X108.181 Y100.103 E2.30729
G1 X107.785 Y100.287 E2.31755
G1 X107.242 Y100.444 E2.33083
G1 X106.908 Y100.478 E2.33872
G1 X106.605 Y100.457 E2.34587
G1 X106.473 Y100.427 E2.34906
G1 X106.345 Y100.387 E2.35220
G1 X105.983 Y100.191 E2.36188
G1 X105.765 Y99.995 E2.36879
G1 X105.612 Y99.807 E2.37448
G1 X105.495 Y99.617 E2.37973
G1 X105.416 Y99.424 E2.38463
G1 X105.370 Y99.228 E2.38937
G1 X105.359 Y99.025 E2.39416
G1 X105.381 Y98.811 E2.39921
G1 X105.443 Y98.584 E2.40474
G1 X105.541 Y98.343 E2.41084
G1 X105.674 Y98.092 E2.41754
G1 X105.845 Y97.830 E2.42489
G1 X106.053 Y97.559 E2.43293
G1 X106.109 Y97.495 E2.43494
G1 X106.303 Y97.690 E2.44141
G1 X106.859 Y98.174 E2.45873
G1 X107.153 Y98.386 E2.46726
G1 X107.451 Y98.558 E2.47536
G1 X107.761 Y98.690 E2.48329
G1 X108.076 Y98.768 E2.49092
G1 X108.251 Y98.785 E2.49505
G1 X108.566 Y98.769 E2.50247
G1 X108.888 Y98.689 E2.51026
G1 X109.196 Y98.518 E2.51855
G1 X109.473 Y98.272 E2.52726
G1 X109.663 Y98.040 E2.53431
G1 X109.808 Y97.798 E2.54093
G1 X109.912 Y97.543 E2.54741
G1 X109.970 Y97.275 E2.55386
G1 X109.985 Y96.999 E2.56036
G1 X109.956 Y96.720 E2.56695
G1 X109.890 Y96.439 E2.57373
G1 X109.788 Y96.160 E2.58073
G1 X109.652 Y95.883 E2.58799
G1 X109.481 Y95.607 E2.59561
G1 X109.275 Y95.332 E2.60370
G1 X108.890 Y94.908 E2.61716
G1 X108.575 Y94.623 E2.62716
G1 X108.089 Y94.281 E2.64113
G1 X107.750 Y94.111 E2.65005
G1 X107.406 Y93.993 E2.65859
G1 X107.061 Y93.929 E2.66684
G1 X106.873 Y93.916 E2.67128
G1 X106.525 Y93.937 E2.67947
G1 X106.173 Y94.017 E2.68796
G1 X105.830 Y94.163 E2.69674
G1 X105.501 Y94.372 E2.70590
G1 X105.186 Y94.642 E2.71565
G1 X104.371 Y95.510 E2.74364
G1 X103.929 Y95.036 E2.75886
G1 X104.737 Y94.163 E2.78684
G1 X105.027 Y93.786 E2.79801
G1 X105.266 Y93.391 E2.80888
G1 X105.443 Y93.000 E2.81896
G1 X105.569 Y92.611 E2.82859
G1 X105.643 Y92.224 E2.83785
G1 X105.668 Y91.839 E2.84691
G1 X105.642 Y91.460 E2.85584
G1 X105.561 Y91.091 E2.86473
G1 X105.428 Y90.735 E2.87366
G1 X105.246 Y90.401 E2.88261
G1 X105.015 Y90.082 E2.89187
G1 X104.498 Y89.553 E2.90927
G1 X104.297 Y89.382 E2.91546
G1 X103.918 Y89.111 E2.92643
G1 X103.543 Y88.916 E2.93635
G1 X103.187 Y88.795 E2.94522
G1 X102.995 Y88.753 E2.94982
G1 X102.643 Y88.728 E2.95814
G1 X102.150 Y88.797 E2.96985
G1 X101.686 Y88.983 E2.98159
G1 X101.286 Y89.259 E2.99302
G1 X100.923 Y89.600 E3.00472
G1 X100.580 Y90.026 E3.01759
G1 X100.392 Y90.339 E3.02618
G1 X100.246 Y90.662 E3.03451
G1 X100.120 Y91.147 E3.04629
G1 X100.089 Y91.492 E3.05443
G1 X100.100 Y91.679 E3.05883
G1 X100.153 Y92.015 E3.06684
G1 X100.254 Y92.352 E3.07512
G1 X100.397 Y92.690 E3.08374
G1 X100.593 Y93.030 E3.09297
G1 X100.807 Y93.299 E3.10104
G1 X100.479 Y93.514 E3.11026
G1 X100.264 Y93.594 E3.11567
G1 X100.042 Y93.623 E3.12093
G1 X99.822 Y93.596 E3.12615
G1 X99.681 Y93.550 E3.12963
G1 X99.531 Y93.478 E3.13354
G1 X99.311 Y93.312 E3.14001
G1 X99.078 Y93.035 E3.14853
G1 X98.957 Y92.808 E3.15457
G1 X98.869 Y92.550 E3.16099
G1 X98.821 Y92.106 E3.17150
G1 X98.848 Y91.763 E3.17958
G1 X98.924 Y91.398 E3.18836
G1 X99.062 Y91.003 E3.19818
G1 X99.264 Y90.577 E3.20928
G1 X99.680 Y89.888 E3.22820
G1 X100.051 Y89.398 E3.24266
G1 X100.500 Y88.886 E3.25866
G1 X100.952 Y88.433 E3.27371
G1 X101.422 Y88.021 E3.28840
G1 X101.905 Y87.655 E3.30266
G1 X102.403 Y87.357 E3.31630
G1 X102.908 Y87.134 E3.32929
G1 X103.425 Y86.984 E3.34195
G1 X103.667 Y86.943 E3.34772
G1 X104.184 Y86.926 E3.35986
G1 X104.434 Y86.950 E3.36577
G1 X104.966 Y87.070 E3.37859
G1 X105.218 Y87.164 E3.38494
G1 X105.474 Y87.289 E3.39163
G1 X105.729 Y87.446 E3.39866
G1 X105.981 Y87.633 E3.40603
G1 X106.493 Y88.113 E3.42255
G1 X106.804 Y88.496 E3.43416
G1 X107.031 Y88.888 E3.44480
G1 X107.179 Y89.293 E3.45495
G1 X107.266 Y89.699 E3.46469
G1 X107.304 Y90.104 E3.47427
G1 X107.294 Y90.501 E3.48360
G1 X107.180 Y91.107 E3.49809
G1 X107.058 Y91.499 E3.50776
G1 X106.809 Y92.080 E3.52262
G1 X106.432 Y92.766 E3.54102
G1 X106.088 Y93.186 F7800.000
G1 E1.54102 F2400.00000
G92 E0
G1 X115.225 Y90.358 F7800.000
G1 E2.00000 F2400.00000
G1 F1800
G1 X115.799 Y90.078 E2.01774
G1 X115.862 Y90.476 E2.02894
G1 X115.551 Y90.810 E2.04160
G1 X115.446 Y90.627 E2.04746
G1 X115.272 Y90.416 E2.05504
G1 E0.05504 F2400.00000
G92 E0
G1 X114.031 Y78.161 F7800.000
G1 E2.00000 F2400.00000
G1 F1800
G1 X113.864 Y77.107 E2.02963
G1 X114.592 Y77.887 E2.05925
G1 X114.099 Y78.128 E2.07449
G1 X114.532 Y78.541 F7800.000
G1 F1800
G1 X116.459 Y90.658 E2.41532
G1 X115.349 Y91.849 E2.46055
G1 X115.199 Y91.323 E2.47575
G1 X114.983 Y90.947 E2.48778
G1 X114.702 Y90.607 E2.50005
G1 X114.306 Y90.182 E2.51617
G1 X115.293 Y89.701 E2.54667
G1 X113.175 Y76.341 E2.92241
G1 X113.546 Y75.943 E2.93752
G1 X115.519 Y78.059 E3.01787
G1 X114.599 Y78.508 E3.04631
G1 E1.04631 F2400.00000
G92 E0
G1 X121.611 Y84.385 F7800.000
G1 E2.00000 F2400.00000
G1 F1800
G1 X122.014 Y84.527 E2.01186
G1 X122.172 Y84.534 E2.01625
G1 X121.702 Y85.038 E2.03538
G1 X121.602 Y84.623 E2.04724
G1 X121.429 Y84.266 E2.05824
G1 X121.548 Y84.344 E2.06218
G1 E0.06218 F2400.00000
G92 E0
G1 X107.743 Y83.276 F7800.000
G1 E2.00000 F2400.00000
G1 F1800
G1 X107.519 Y83.139 E2.00729
G1 X107.127 Y83.001 E2.01883
G1 X106.970 Y82.994 E2.02321
G1 X107.451 Y82.478 E2.04282
G1 X107.455 Y82.564 E2.04522
G1 X107.608 Y83.055 E2.05951
G1 X107.704 Y83.212 E2.06461
G1 E0.06461 F2400.00000
G92 E0
G1 X115.103 Y78.838 F7800.000
G1 E2.00000 F2400.00000
G1 F1800
G1 X117.010 Y90.827 E2.28544
G1 X114.381 Y93.647 E2.37611
G1 X114.063 Y93.306 E2.38707
G1 X114.543 Y92.785 E2.40374
G1 X114.736 Y92.463 E2.41255
G1 X114.828 Y92.169 E2.41979
G1 X114.830 Y91.894 E2.42627
G1 X114.720 Y91.529 E2.43522
G1 X114.556 Y91.243 E2.44298
G1 X114.313 Y90.948 E2.45196
G1 X107.951 Y84.129 E2.67126
G1 X107.570 Y83.778 E2.68346
G1 X107.295 Y83.609 E2.69103
G1 X107.028 Y83.515 E2.69769
G1 X106.753 Y83.503 E2.70415
G1 X106.509 Y83.575 E2.71014
G1 X106.305 Y83.695 E2.71570
G1 X106.132 Y83.839 E2.72100
G1 X105.680 Y84.318 E2.73648
G1 X105.353 Y83.968 E2.74774
G1 X108.422 Y80.678 E2.85354
G1 X108.749 Y81.028 E2.86480
G1 X108.266 Y81.551 E2.88153
G1 X108.128 Y81.740 E2.88704
G1 X108.014 Y81.959 E2.89283
G1 X107.959 Y82.203 E2.89872
G1 X107.970 Y82.475 E2.90513
G1 X108.084 Y82.840 E2.91412
G1 X108.211 Y83.049 E2.91988
G1 X108.537 Y83.447 E2.93197
G1 X114.290 Y89.614 E3.13028
G1 X114.722 Y89.403 E3.14158
G1 X112.624 Y76.172 E3.45658
G1 X113.546 Y75.184 E3.48837
G1 X121.198 Y83.388 E3.75216
G1 X121.572 Y83.741 E3.76425
G1 X121.842 Y83.917 E3.77184
G1 X122.113 Y84.013 E3.77860
G1 X122.387 Y84.025 E3.78504
G1 X122.632 Y83.955 E3.79104
G1 X122.891 Y83.800 E3.79812
G1 X123.065 Y83.654 E3.80346
G1 X123.481 Y83.211 E3.81775
G1 X123.797 Y83.550 E3.82866
G1 X120.729 Y86.841 E3.93445
G1 X120.412 Y86.501 E3.94539
G1 X120.843 Y86.037 E3.96027
G1 X120.977 Y85.853 E3.96563
G1 X121.119 Y85.584 E3.97278
G1 X121.196 Y85.277 E3.98023
G1 X121.185 Y85.073 E3.98502
G1 X121.114 Y84.803 E3.99159
G1 X120.976 Y84.519 E3.99902
G1 X120.672 Y84.135 E4.01055
G1 X115.536 Y78.627 E4.18763
G1 X115.171 Y78.805 E4.19717
G1 X114.609 Y78.764 F7800.000
G1 E2.19717 F2400.00000
G92 E0
G1 X125.154 Y80.548 F7800.000
G1 E2.00000 F2400.00000
G1 F1800
G1 X128.335 Y77.138 E2.12954
G1 X128.582 Y76.823 E2.14065
G1 X128.727 Y76.522 E2.14993
G1 X128.808 Y76.217 E2.15870
G1 X128.814 Y75.872 E2.16828
G1 X129.533 Y76.642 E2.19753
G1 X125.555 Y80.906 E2.35950
G1 X125.210 Y80.598 E2.37235
G1 E0.37235 F2400.00000
G92 E0
G1 X124.336 Y71.504 F7800.000
G1 E2.00000 F2400.00000
G1 F1800
G1 X124.229 Y71.313 E2.00608
G1 X123.903 Y70.851 E2.02179
G1 X123.524 Y70.409 E2.03796
G1 X123.048 Y69.937 E2.05658
G1 X122.574 Y69.548 E2.07362
G1 X122.287 Y69.351 E2.08329
G1 X121.954 Y69.167 E2.09386
G1 X122.394 Y69.270 E2.10640
G1 X122.725 Y69.419 E2.11650
G1 X123.124 Y69.696 E2.12997
G1 X123.340 Y69.885 E2.13794
G1 X123.717 Y70.284 E2.15319
G1 X123.997 Y70.672 E2.16648
G1 X124.198 Y71.057 E2.17856
G1 X124.316 Y71.432 E2.18948
G1 E0.18948 F2400.00000
G92 E0
G1 X124.215 Y74.267 F7800.000
G1 E2.00000 F2400.00000
G1 F1800
G1 X124.299 Y73.854 E2.01170
G1 X124.323 Y73.404 E2.02424
G1 X124.283 Y72.944 E2.03706
G1 X124.170 Y72.486 E2.05017
G1 X123.992 Y72.041 E2.06348
G1 X123.754 Y71.612 E2.07711
G1 X123.460 Y71.196 E2.09124
G1 X123.113 Y70.792 E2.10605
G1 X122.672 Y70.354 E2.12331
G1 X122.237 Y69.997 E2.13895
G1 X121.992 Y69.829 E2.14719
G1 X121.551 Y69.585 E2.16119
G1 X121.115 Y69.416 E2.17419
G1 X120.855 Y69.348 E2.18165
G1 X120.427 Y69.296 E2.19361
G1 X120.018 Y69.304 E2.20499
G1 X119.765 Y69.342 E2.21209
G1 X119.487 Y69.426 E2.22016
G1 X119.864 Y69.153 E2.23309
G1 X120.296 Y68.913 E2.24681
G1 X120.739 Y68.738 E2.26004
G1 X121.210 Y68.622 E2.27353
G1 X121.401 Y68.596 E2.27889
G1 X121.869 Y68.592 E2.29189
G1 X122.070 Y68.615 E2.29750
G1 X122.561 Y68.733 E2.31153
G1 X122.774 Y68.815 E2.31786
G1 X123.237 Y69.078 E2.33266
G1 X123.724 Y69.475 E2.35011
G1 X124.156 Y69.933 E2.36759
G1 X124.475 Y70.376 E2.38276
G1 X124.710 Y70.824 E2.39682
G1 X124.786 Y71.020 E2.40263
G1 X124.907 Y71.468 E2.41554
G1 X124.958 Y71.920 E2.42817
G1 X124.958 Y72.115 E2.43359
G1 X124.908 Y72.588 E2.44679
G1 X124.795 Y73.055 E2.46016
G1 X124.611 Y73.540 E2.47454
G1 X124.255 Y74.203 E2.49548
G1 E0.49548 F2400.00000
G92 E0
G1 X117.802 Y73.854 F7800.000
G1 E2.00000 F2400.00000
G1 F1800
G1 X117.737 Y73.833 E2.00192
G1 X117.544 Y73.668 E2.00896
G1 X117.440 Y73.537 E2.01361
G1 X117.347 Y73.375 E2.01879
G1 X117.260 Y73.132 E2.02597
G1 X117.235 Y72.904 E2.03234
G1 X117.244 Y72.658 E2.03918
G1 X117.291 Y72.375 E2.04715
G1 X117.402 Y72.030 E2.05721
G1 X117.372 Y72.274 E2.06406
G1 X117.425 Y72.849 E2.08009
G1 X117.521 Y73.228 E2.09096
G1 X117.658 Y73.580 E2.10144
G1 X117.767 Y73.787 E2.10795
G1 E0.10795 F2400.00000
G92 E0
G1 X121.884 Y77.108 F7800.000
G1 E2.00000 F2400.00000
G1 F1800
G1 X125.016 Y79.937 E2.09925
G1 X127.941 Y76.801 E2.20010
G1 X128.140 Y76.547 E2.20768
G1 X128.239 Y76.342 E2.21304
G1 X128.293 Y76.139 E2.21797
G1 X128.301 Y75.940 E2.22266
G1 X128.272 Y75.744 E2.22732
G1 X128.094 Y75.301 E2.23855
G1 X127.844 Y74.870 E2.25025
G1 X128.216 Y74.471 E2.26308
G1 X130.241 Y76.642 E2.33288
G1 X125.588 Y81.630 E2.49327
G1 X120.951 Y77.490 E2.63943
G1 X121.205 Y76.846 E2.65571
G1 X121.517 Y76.674 E2.66411
G1 X121.948 Y76.384 E2.67631
G1 X122.548 Y75.881 E2.69473
G1 X122.886 Y75.548 E2.70588
G1 X123.167 Y75.215 E2.71612
G1 X123.398 Y74.874 E2.72581
G1 X123.580 Y74.522 E2.73513
G1 X123.709 Y74.159 E2.74419
G1 X123.784 Y73.789 E2.75306
G1 X123.804 Y73.412 E2.76193
G1 X123.770 Y73.029 E2.77098
G1 X123.675 Y72.645 E2.78029
G1 X123.523 Y72.264 E2.78993
G1 X123.314 Y71.888 E2.80005
G1 X123.051 Y71.515 E2.81078
G1 X122.734 Y71.145 E2.82225
G1 X122.325 Y70.739 E2.83580
G1 X121.925 Y70.411 E2.84794
G1 X121.720 Y70.270 E2.85381
G1 X121.332 Y70.055 E2.86423
G1 X120.956 Y69.910 E2.87371
G1 X120.758 Y69.858 E2.87852
G1 X120.401 Y69.815 E2.88697
G1 X120.062 Y69.821 E2.89495
G1 X119.879 Y69.849 E2.89930
G1 X119.562 Y69.944 E2.90707
G1 X119.394 Y70.020 E2.91142
G1 X119.111 Y70.198 E2.91928
G1 X118.729 Y70.514 E2.93092
G1 X118.349 Y70.950 E2.94454
G1 X118.142 Y71.278 E2.95366
G1 X118.001 Y71.609 E2.96211
G1 X117.952 Y71.795 E2.96664
G1 X117.892 Y72.282 E2.97817
G1 X117.937 Y72.761 E2.98948
G1 X118.016 Y73.071 E2.99700
G1 X118.129 Y73.364 E3.00441
G1 X118.277 Y73.643 E3.01181
G1 X118.558 Y74.040 E3.02325
G1 X118.447 Y74.141 E3.02678
G1 X118.163 Y74.306 E3.03449
G1 X118.047 Y74.346 E3.03738
G1 X117.775 Y74.379 E3.04381
G1 X117.557 Y74.324 E3.04910
G1 X117.442 Y74.262 E3.05219
G1 X117.170 Y74.029 E3.06061
G1 X117.010 Y73.829 E3.06663
G1 X116.879 Y73.600 E3.07284
G1 X116.779 Y73.345 E3.07926
G1 X116.716 Y72.923 E3.08930
G1 X116.727 Y72.605 E3.09679
G1 X116.786 Y72.255 E3.10514
G1 X116.904 Y71.874 E3.11451
G1 X117.084 Y71.470 E3.12492
G1 X117.488 Y70.794 E3.14344
G1 X117.850 Y70.315 E3.15756
G1 X118.291 Y69.810 E3.17331
G1 X118.692 Y69.414 E3.18656
G1 X119.125 Y69.048 E3.19991
G1 X119.586 Y68.715 E3.21326
G1 X120.074 Y68.444 E3.22639
G1 X120.581 Y68.244 E3.23921
G1 X121.113 Y68.112 E3.25209
G1 X121.364 Y68.078 E3.25805
G1 X121.897 Y68.074 E3.27059
G1 X122.160 Y68.104 E3.27681
G1 X122.716 Y68.237 E3.29025
G1 X122.985 Y68.341 E3.29703
G1 X123.257 Y68.480 E3.30422
G1 X123.531 Y68.652 E3.31182
G1 X123.805 Y68.858 E3.31987
G1 X124.079 Y69.098 E3.32844
G1 X124.561 Y69.610 E3.34498
G1 X124.917 Y70.103 E3.35928
G1 X125.182 Y70.610 E3.37273
G1 X125.278 Y70.858 E3.37899
G1 X125.417 Y71.371 E3.39148
G1 X125.476 Y71.891 E3.40378
G1 X125.476 Y72.142 E3.40971
G1 X125.419 Y72.676 E3.42232
G1 X125.291 Y73.209 E3.43521
G1 X125.085 Y73.750 E3.44883
G1 X124.804 Y74.299 E3.46332
G1 X124.641 Y74.564 E3.47064
G1 X124.251 Y75.108 E3.48638
G1 X124.033 Y75.372 E3.49442
G1 X123.593 Y75.844 E3.50961
G1 X122.868 Y76.474 E3.53221
G1 X122.532 Y76.718 E3.54196
G1 X121.948 Y77.069 E3.55798
G1 X121.517 Y77.448 F7800.000
G1 E1.55798 F2400.00000
G92 E0
G1 X130.989 Y71.958 F7800.000
G1 E2.00000 F2400.00000
G1 F1800
G1 X131.010 Y71.790 E2.00470
G1 X131.103 Y71.683 E2.00865
G1 X131.204 Y71.623 E2.01190
G1 X131.427 Y71.561 E2.01833
G1 X131.704 Y71.524 E2.02609
G1 X132.106 Y71.524 E2.03728
G1 X131.213 Y71.850 E2.06370
G1 X131.057 Y71.925 E2.06851
G1 E0.06851 F2400.00000
G92 E0
G1 X134.839 Y70.232 F7800.000
G1 E2.00000 F2400.00000
G1 F1800
G1 X127.919 Y62.813 E2.28181
G1 X127.688 Y62.580 E2.29091
G1 X127.317 Y62.279 E2.30420
G1 X127.148 Y62.182 E2.30961
G1 X127.403 Y61.909 E2.31999
G1 X127.584 Y62.177 E2.32898
G1 X127.897 Y62.546 E2.34242
G1 X134.952 Y70.111 E2.62975
G1 X134.890 Y70.177 E2.63226
G1 X134.927 Y70.960 F7800.000
G1 F1800
G1 X134.775 Y70.985 E2.63654
G1 X127.312 Y62.997 E2.94021
G1 X126.999 Y62.743 E2.95139
G1 X126.600 Y62.516 E2.96415
G1 X126.186 Y62.391 E2.97617
G1 X127.599 Y60.876 E3.03370
G1 X127.679 Y61.221 E3.04353
G1 X127.835 Y61.547 E3.05358
G1 X128.032 Y61.837 E3.06331
G1 X128.316 Y62.173 E3.07554
G1 X135.719 Y70.111 E3.37704
G1 X134.978 Y70.905 E3.40721
G1 X134.230 Y71.161 F7800.000
G1 F1800
G1 X127.142 Y63.561 E3.65156
G1 X126.964 Y63.382 E3.65751
G1 X126.706 Y63.172 E3.66532
G1 X126.394 Y62.995 E3.67375
G1 X126.129 Y62.915 E3.68026
G1 X125.860 Y62.937 E3.68661
G1 X125.619 Y63.033 E3.69270
G1 X125.297 Y63.287 E3.70236
G1 X124.354 Y64.295 E3.73481
G1 X124.028 Y63.945 E3.74606
G1 X129.089 Y58.519 E3.92053
G1 X129.415 Y58.869 E3.93177
G1 X128.448 Y59.908 E3.96516
G1 X128.219 Y60.233 E3.97450
G1 X128.123 Y60.509 E3.98136
G1 X128.111 Y60.790 E3.98797
G1 X128.171 Y61.048 E3.99422
G1 X128.286 Y61.289 E4.00049
G1 X128.445 Y61.524 E4.00715
G1 X128.703 Y61.829 E4.01656
G1 X136.427 Y70.111 E4.28285
G1 X135.186 Y71.442 E4.32565
G1 X133.294 Y71.757 E4.37075
G1 X132.472 Y71.952 E4.39061
G1 X132.039 Y72.088 E4.40127
G1 X131.419 Y72.325 E4.41690
G1 X130.986 Y72.536 E4.42821
G1 X130.737 Y72.683 E4.43502
G1 X130.582 Y72.436 E4.44188
G1 X130.507 Y72.223 E4.44719
G1 X130.463 Y71.945 E4.45380
G1 X130.487 Y71.711 E4.45935
G1 X130.544 Y71.556 E4.46322
G1 X130.637 Y71.414 E4.46722
G1 X130.786 Y71.269 E4.47210
G1 X130.983 Y71.151 E4.47750
G1 X131.333 Y71.051 E4.48606
G1 X131.669 Y71.006 E4.49404
G1 X132.493 Y71.006 E4.51341
G1 X134.155 Y71.154 E4.55265
G1 X134.673 Y70.930 F7800.000
G1 E2.55265 F2400.00000
G92 E0
G1 X139.901 Y62.977 F7800.000
G1 E2.00000 F2400.00000
G1 F1800
G1 X139.438 Y62.647 E2.01338
G1 X138.958 Y62.232 E2.02830
G1 X138.465 Y61.735 E2.04477
G1 X135.091 Y58.117 E2.16108
G1 X134.627 Y57.589 E2.17762
G1 X134.243 Y57.078 E2.19264
G1 X134.075 Y56.822 E2.19985
G1 X133.811 Y56.334 E2.21288
G1 X133.629 Y55.874 E2.22452
G1 X133.564 Y55.642 E2.23019
G1 X133.500 Y55.223 E2.24016
G1 X133.507 Y54.992 E2.24558
G1 X133.597 Y54.594 E2.25519
G1 X133.797 Y54.227 E2.26502
G1 X134.084 Y53.919 E2.27491
G1 X134.268 Y53.786 E2.28025
G1 X134.622 Y53.632 E2.28932
G1 X134.833 Y53.594 E2.29438
G1 X135.042 Y53.588 E2.29928
G1 X135.254 Y53.613 E2.30432
G1 X135.660 Y53.724 E2.31420
G1 X136.106 Y53.927 E2.32572
G1 X136.563 Y54.207 E2.33834
G1 X137.043 Y54.578 E2.35259
G1 X137.778 Y55.288 E2.37663
G1 X141.154 Y58.909 E2.49303
G1 X141.616 Y59.438 E2.50956
G1 X142.002 Y59.957 E2.52475
G1 X142.301 Y60.454 E2.53840
G1 X142.424 Y60.697 E2.54480
G1 X142.607 Y61.150 E2.55628
G1 X142.713 Y61.586 E2.56684
G1 X142.733 Y62.004 E2.57667
G1 X142.703 Y62.222 E2.58187
G1 X142.641 Y62.434 E2.58705
G1 X142.449 Y62.797 E2.59671
G1 X142.152 Y63.114 E2.60692
G1 X141.809 Y63.324 E2.61638
G1 X141.603 Y63.392 E2.62148
G1 X141.392 Y63.426 E2.62651
G1 X140.991 Y63.408 E2.63594
G1 X140.571 Y63.301 E2.64614
G1 X140.137 Y63.110 E2.65729
G1 X139.967 Y63.014 E2.66189
G1 X139.901 Y62.977 F7800.000
G1 E0.66189 F2400.00000
G92 E0
G1 X142.270 Y58.547 F7800.000
G1 E2.00000 F2400.00000
G1 F1800
G1 X141.955 Y58.186 E2.01330
G1 X138.548 Y54.532 E2.15208
G1 X137.888 Y53.894 E2.17760
G1 X138.416 Y54.230 E2.19500
G1 X139.049 Y54.718 E2.21721
G1 X139.362 Y54.988 E2.22867
G1 X140.032 Y55.627 E2.25439
G1 X140.697 Y56.341 E2.28151
G1 X141.299 Y57.065 E2.30766
G1 X141.549 Y57.399 E2.31924
G1 X142.024 Y58.104 E2.34287
G1 X142.237 Y58.479 E2.35485
G1 E0.35485 F2400.00000
G92 E0
G1 X143.242 Y61.806 F7800.000
G1 E2.00000 F2400.00000
G1 F1800
G1 X143.229 Y61.512 E2.00817
G1 X143.102 Y60.991 E2.02308
G1 X142.896 Y60.481 E2.03833
G1 X142.754 Y60.203 E2.04701
G1 X142.433 Y59.668 E2.06434
G1 X142.020 Y59.113 E2.08356
G1 X141.539 Y58.562 E2.10388
G1 X138.148 Y54.925 E2.24200
G1 X137.382 Y54.185 E2.27157
G1 X136.858 Y53.780 E2.28998
G1 X136.356 Y53.472 E2.30635
G1 X135.828 Y53.234 E2.32243
G1 X135.355 Y53.104 E2.33607
G1 X135.065 Y53.069 E2.34416
G1 X134.861 Y53.075 E2.34985
G1 X135.098 Y52.960 E2.35716
G1 X135.333 Y52.874 E2.36413
G1 X135.828 Y52.780 E2.37813
G1 X136.084 Y52.767 E2.38523
G1 X136.601 Y52.811 E2.39966
G1 X137.201 Y52.961 E2.41683
G1 X137.484 Y53.064 E2.42521
G1 X138.087 Y53.355 E2.44381
G1 X138.739 Y53.771 E2.46527
G1 X139.404 Y54.284 E2.48861
G1 X139.739 Y54.572 E2.50089
G1 X140.431 Y55.233 E2.52745
G1 X141.119 Y55.970 E2.55547
G1 X141.739 Y56.718 E2.58245
G1 X142.007 Y57.074 E2.59482
G1 X142.500 Y57.805 E2.61933
G1 X142.696 Y58.141 E2.63012
G1 X143.037 Y58.837 E2.65167
G1 X143.261 Y59.464 E2.67014
G1 X143.403 Y60.114 E2.68864
G1 X143.434 Y60.400 E2.69663
G1 X143.426 Y60.978 E2.71269
G1 X143.387 Y61.262 E2.72066
G1 X143.265 Y61.734 E2.73420
G1 E0.73420 F2400.00000
G92 E0
G1 X138.490 Y63.254 F7800.000
G1 E2.00000 F2400.00000
G1 F1800
G1 X138.128 Y63.044 E2.01160
G1 X137.858 Y62.858 E2.02073
G1 X137.227 Y62.354 E2.04316
G1 X136.573 Y61.759 E2.06772
G1 X135.896 Y61.068 E2.09457
G1 X135.256 Y60.347 E2.12137
G1 X134.698 Y59.642 E2.14633
G1 X134.229 Y58.969 E2.16913
G1 X133.904 Y58.400 E2.18733
G1 X134.291 Y58.841 E2.20362
G1 X137.687 Y62.483 E2.34194
G1 X138.221 Y63.021 E2.36300
G1 X138.433 Y63.205 E2.37079
G1 E0.37079 F2400.00000
G92 E0
G1 X141.416 Y63.945 F7800.000
G1 E2.00000 F2400.00000
G1 F1800
G1 X141.107 Y64.105 E2.00968
G1 X140.863 Y64.196 E2.01690
G1 X140.361 Y64.303 E2.03116
G1 X139.854 Y64.311 E2.04524
G1 X139.594 Y64.277 E2.05252
G1 X139.052 Y64.134 E2.06809
G1 X138.454 Y63.881 E2.08615
G1 X137.828 Y63.519 E2.10623
G1 X137.523 Y63.308 E2.11652
G1 X136.863 Y62.781 E2.13999
G1 X136.184 Y62.163 E2.16550
G1 X135.486 Y61.451 E2.19318
G1 X134.826 Y60.707 E2.22081
G1 X134.248 Y59.977 E2.24668
G1 X133.755 Y59.269 E2.27065
G1 X133.358 Y58.575 E2.29285
G1 X133.065 Y57.910 E2.31303
G1 X132.867 Y57.263 E2.33184
G1 X132.775 Y56.673 E2.34841
G1 X132.765 Y56.382 E2.35649
G1 X132.814 Y55.809 E2.37248
G1 X132.873 Y55.532 E2.38036
G1 X132.983 Y55.208 E2.38984
G1 X133.056 Y55.751 E2.40506
G1 X133.138 Y56.040 E2.41339
G1 X133.341 Y56.553 E2.42873
G1 X133.629 Y57.088 E2.44560
G1 X133.819 Y57.377 E2.45520
G1 X134.225 Y57.916 E2.47394
G1 X134.707 Y58.465 E2.49423
G1 X138.091 Y62.094 E2.63207
G1 X138.604 Y62.611 E2.65230
G1 X139.117 Y63.055 E2.67116
G1 X139.623 Y63.415 E2.68840
G1 X139.905 Y63.574 E2.69739
G1 X140.402 Y63.792 E2.71245
G1 X140.915 Y63.924 E2.72718
G1 X141.341 Y63.942 E2.73903
G1 X141.689 Y64.386 F7800.000
G1 F1800
G1 X141.311 Y64.582 E2.74902
G1 X141.019 Y64.690 E2.75635
G1 X140.721 Y64.769 E2.76361
G1 X140.420 Y64.818 E2.77078
G1 X140.118 Y64.838 E2.77790
G1 X139.812 Y64.828 E2.78509
G1 X139.504 Y64.788 E2.79239
G1 X139.189 Y64.717 E2.79998
G1 X138.876 Y64.622 E2.80768
G1 X138.222 Y64.345 E2.82437
G1 X137.550 Y63.957 E2.84262
G1 X137.214 Y63.724 E2.85223
G1 X136.527 Y63.176 E2.87292
G1 X135.824 Y62.536 E2.89526
G1 X135.107 Y61.804 E2.91934
G1 X134.429 Y61.040 E2.94337
G1 X133.832 Y60.286 E2.96599
G1 X133.317 Y59.546 E2.98719
G1 X132.895 Y58.809 E3.00716
G1 X132.578 Y58.091 E3.02560
G1 X132.364 Y57.388 E3.04288
G1 X132.298 Y57.050 E3.05097
G1 X132.258 Y56.713 E3.05896
G1 X132.246 Y56.380 E3.06679
G1 X132.261 Y56.050 E3.07457
G1 X132.303 Y55.722 E3.08234
G1 X132.372 Y55.399 E3.09012
G1 X132.473 Y55.083 E3.09791
G1 X132.607 Y54.769 E3.10593
G1 X132.772 Y54.462 E3.11414
G1 X132.977 Y54.143 E3.12306
G1 X133.213 Y53.832 E3.13224
G1 X133.484 Y53.522 E3.14192
G1 X133.760 Y53.244 E3.15112
G1 X134.046 Y52.998 E3.15998
G1 X134.323 Y52.795 E3.16807
G1 X134.608 Y52.622 E3.17590
G1 X134.895 Y52.483 E3.18342
G1 X135.184 Y52.377 E3.19065
G1 X135.477 Y52.307 E3.19773
G1 X135.778 Y52.264 E3.20487
G1 X136.081 Y52.248 E3.21202
G1 X136.383 Y52.261 E3.21912
G1 X136.697 Y52.301 E3.22656
G1 X137.353 Y52.465 E3.24247
G1 X137.679 Y52.584 E3.25062
G1 X138.346 Y52.906 E3.26805
G1 X139.037 Y53.346 E3.28730
G1 X139.732 Y53.882 E3.30793
G1 X140.087 Y54.189 E3.31897
G1 X140.799 Y54.868 E3.34212
G1 X141.508 Y55.628 E3.36653
G1 X142.146 Y56.396 E3.39003
G1 X142.429 Y56.773 E3.40111
G1 X142.938 Y57.530 E3.42255
G1 X143.153 Y57.895 E3.43252
G1 X143.512 Y58.629 E3.45173
G1 X143.761 Y59.329 E3.46919
G1 X143.915 Y60.030 E3.48609
G1 X143.951 Y60.365 E3.49399
G1 X143.961 Y60.699 E3.50186
G1 X143.942 Y61.028 E3.50962
G1 X143.897 Y61.354 E3.51735
G1 X143.825 Y61.677 E3.52513
G1 X143.727 Y61.990 E3.53284
G1 X143.600 Y62.298 E3.54068
G1 X143.440 Y62.602 E3.54875
G1 X143.249 Y62.903 E3.55713
G1 X143.026 Y63.200 E3.56586
G1 X142.770 Y63.493 E3.57503
G1 X142.478 Y63.787 E3.58477
G1 X142.186 Y64.042 E3.59386
G1 X141.752 Y64.346 E3.60633
G1 X141.599 Y64.340 F7800.000
G1 E1.60633 F2400.00000
G92 E0
G1 X148.061 Y55.954 F7800.000
G1 E2.00000 F2400.00000
G1 F1800
G1 X147.954 Y55.769 E2.00594
G1 X147.734 Y55.502 E2.01555
G1 X148.308 Y55.222 E2.03332
G1 X148.372 Y55.621 E2.04454
G1 X148.112 Y55.899 E2.05512
G1 E0.05512 F2400.00000
G92 E0
G1 X146.541 Y43.304 F7800.000
G1 E2.00000 F2400.00000
G1 F1800
G1 X146.374 Y42.252 E2.02959
G1 X147.101 Y43.031 E2.05917
G1 X146.609 Y43.272 E2.07438
G1 X147.041 Y43.685 F7800.000
G1 F1800
G1 X148.969 Y55.803 E2.41524
G1 X147.854 Y56.998 E2.46065
G1 X147.709 Y56.467 E2.47596
G1 X147.492 Y56.090 E2.48804
G1 X147.211 Y55.751 E2.50027
G1 X146.815 Y55.326 E2.51639
G1 X147.802 Y54.845 E2.54690
G1 X145.685 Y41.485 E2.92263
G1 X146.055 Y41.088 E2.93772
G1 X148.028 Y43.203 E3.01806
G1 X147.108 Y43.652 E3.04650
G1 E1.04650 F2400.00000
G92 E0
G1 X154.121 Y49.530 F7800.000
G1 E2.00000 F2400.00000
G1 F1800
G1 X154.526 Y49.673 E2.01192
G1 X154.681 Y49.679 E2.01624
G1 X154.216 Y50.177 E2.03518
G1 X154.112 Y49.765 E2.04698
G1 X153.937 Y49.410 E2.05797
G1 X154.058 Y49.489 E2.06198
G1 E0.06198 F2400.00000
G92 E0
G1 X140.253 Y48.422 F7800.000
G1 E2.00000 F2400.00000
G1 F1800
G1 X140.029 Y48.285 E2.00728
G1 X139.638 Y48.144 E2.01884
G1 X139.479 Y48.138 E2.02324
G1 X139.961 Y47.621 E2.04288
G1 X139.965 Y47.710 E2.04534
G1 X140.118 Y48.200 E2.05961
G1 X140.214 Y48.358 E2.06473
G1 E0.06473 F2400.00000
G92 E0
G1 X147.612 Y43.982 F7800.000
G1 E2.00000 F2400.00000
G1 F1800
G1 X149.520 Y55.972 E2.28547
G1 X146.890 Y58.791 E2.37613
G1 X146.573 Y58.451 E2.38707
G1 X147.052 Y57.929 E2.40374
G1 X147.243 Y57.612 E2.41244
G1 X147.318 Y57.398 E2.41777
G1 X147.347 Y57.226 E2.42187
G1 X147.337 Y57.030 E2.42649
G1 X147.230 Y56.673 E2.43524
G1 X147.065 Y56.387 E2.44302
G1 X146.822 Y56.092 E2.45199
G1 X140.461 Y49.273 E2.67128
G1 X140.079 Y48.922 E2.68346
G1 X139.804 Y48.755 E2.69103
G1 X139.538 Y48.659 E2.69769
G1 X139.264 Y48.649 E2.70414
G1 X139.017 Y48.719 E2.71016
G1 X138.815 Y48.841 E2.71572
G1 X138.642 Y48.983 E2.72098
G1 X138.190 Y49.463 E2.73649
G1 X137.863 Y49.112 E2.74777
G1 X140.931 Y45.822 E2.85354
G1 X141.258 Y46.173 E2.86481
G1 X140.773 Y46.697 E2.88159
G1 X140.597 Y46.949 E2.88882
G1 X140.522 Y47.108 E2.89295
G1 X140.468 Y47.348 E2.89875
G1 X140.480 Y47.620 E2.90514
G1 X140.594 Y47.985 E2.91414
G1 X140.721 Y48.195 E2.91991
G1 X141.047 Y48.591 E2.93198
G1 X146.799 Y54.758 E3.13026
G1 X147.231 Y54.547 E3.14157
G1 X145.134 Y41.316 E3.45656
G1 X146.055 Y40.328 E3.48833
G1 X153.708 Y48.533 E3.75216
G1 X154.082 Y48.886 E3.76425
G1 X154.352 Y49.062 E3.77184
G1 X154.624 Y49.158 E3.77861
G1 X154.896 Y49.168 E3.78502
G1 X155.148 Y49.097 E3.79117
G1 X155.517 Y48.854 E3.80156
G1 X155.989 Y48.354 E3.81773
G1 X156.307 Y48.695 E3.82869
G1 X153.238 Y51.985 E3.93448
G1 X152.922 Y51.645 E3.94540
G1 X153.352 Y51.182 E3.96025
G1 X153.486 Y50.998 E3.96562
G1 X153.625 Y50.732 E3.97267
G1 X153.695 Y50.495 E3.97849
G1 X153.697 Y50.227 E3.98478
G1 X153.624 Y49.947 E3.99160
G1 X153.485 Y49.664 E3.99901
G1 X153.182 Y49.279 E4.01053
G1 X148.045 Y43.771 E4.18763
G1 X147.680 Y43.949 E4.19718
G1 X147.118 Y43.908 F7800.000
G1 E2.19718 F2400.00000
G92 E0
G1 X151.405 Y40.907 F7800.000
G1 E2.00000 F2400.00000
G1 F1800
G1 X154.662 Y37.416 E2.11225
G1 X158.631 Y41.667 E2.24901
G1 X159.071 Y42.108 E2.26366
G1 X159.729 Y42.718 E2.28476
G1 X159.458 Y43.170 E2.29716
G1 X157.996 Y42.681 E2.33341
G1 X157.287 Y42.476 E2.35075
G1 X151.478 Y40.926 E2.49214
G1 X150.989 Y40.629 F7800.000
G1 E0.49214 F2400.00000
G92 E0
G1 X153.033 Y34.428 F7800.000
G1 E2.00000 F2400.00000
G1 F1800
G1 X153.335 Y34.105 E2.01228
G1 X153.493 Y34.390 E2.02133
G1 X153.751 Y34.732 E2.03324
G1 X160.414 Y41.881 E2.30470
G1 X159.820 Y41.331 E2.32719
G1 X159.407 Y40.918 E2.34341
G1 X154.662 Y35.835 E2.53657
G1 X154.642 Y35.856 E2.53737
G1 X153.654 Y34.818 E2.57717
G1 X153.237 Y34.517 E2.59145
G1 X153.102 Y34.458 E2.59555
G1 E0.59555 F2400.00000
G92 E0
G1 X160.390 Y42.624 F7800.000
G1 E2.00000 F2400.00000
G1 F1800
G1 X159.430 Y41.735 E2.03634
G1 X159.004 Y41.307 E2.05312
G1 X154.662 Y36.657 E2.22985
G1 X154.646 Y36.673 E2.23048
G1 X153.283 Y35.242 E2.28538
G1 X152.958 Y35.007 E2.29653
G1 X152.530 Y34.821 E2.30948
G1 X152.201 Y34.748 E2.31885
G1 X151.970 Y34.745 E2.32526
G1 X153.613 Y32.983 E2.39219
G1 X153.648 Y33.322 E2.40164
G1 X153.787 Y33.764 E2.41450
G1 X153.965 Y34.083 E2.42466
G1 X154.182 Y34.372 E2.43471
G1 X161.568 Y42.296 E2.73560
G1 X160.554 Y43.382 E2.77685
G1 X160.019 Y43.241 E2.79222
G1 X160.351 Y42.688 E2.81014
G1 E0.81014 F2400.00000
G92 E0
G1 X156.193 Y35.774 F7800.000
G1 E2.00000 F2400.00000
G1 F1800
G1 X162.276 Y42.296 E2.20971
G1 X160.722 Y43.961 E2.26327
G1 X151.080 Y41.429 E2.49768
G1 X150.502 Y40.810 E2.51760
G1 X154.148 Y36.901 E2.64329
G1 X152.941 Y35.634 E2.68444
G1 X152.700 Y35.460 E2.69143
G1 X152.369 Y35.316 E2.69990
G1 X152.141 Y35.265 E2.70540
G1 X151.914 Y35.263 E2.71074
G1 X151.610 Y35.332 E2.71808
G1 X151.404 Y35.429 E2.72342
G1 X151.220 Y35.556 E2.72869
G1 X150.977 Y35.766 E2.73623
G1 X150.584 Y36.177 E2.74961
G1 X150.255 Y35.825 E2.76095
G1 X154.500 Y31.273 E2.90731
G1 X154.829 Y31.625 E2.91862
G1 X154.417 Y32.127 E2.93390
G1 X154.290 Y32.334 E2.93960
G1 X154.172 Y32.650 E2.94753
G1 X154.133 Y32.975 E2.95523
G1 X154.158 Y33.217 E2.96094
G1 X154.265 Y33.558 E2.96935
G1 X154.400 Y33.800 E2.97587
G1 X154.580 Y34.040 E2.98291
G1 X155.695 Y35.242 E3.02148
G1 X157.072 Y33.766 E3.06893
G1 X157.569 Y34.299 E3.08606
G1 X156.244 Y35.719 E3.13173
G1 X155.877 Y36.161 F7800.000
G1 E1.13173 F2400.00000
G92 E0
G1 X158.242 Y28.843 F7800.000
G1 E2.00000 F2400.00000
G1 F1800
G1 X158.571 Y28.491 E2.01339
G1 X165.517 Y35.938 E2.29628
G1 X165.980 Y36.371 E2.31389
G1 X166.202 Y36.504 E2.32106
G1 X165.830 Y36.902 E2.33619
G1 X165.771 Y36.791 E2.33969
G1 X165.356 Y36.272 E2.35816
G1 X159.004 Y29.462 E2.61683
G1 X158.617 Y29.091 E2.63174
G1 X158.305 Y28.885 E2.64213
G1 X157.251 Y29.084 F7800.000
G1 F1800
G1 X158.571 Y27.668 E2.69589
G1 X165.915 Y35.542 E2.99495
G1 X166.320 Y35.921 E3.01037
G1 X166.689 Y36.142 E3.02233
G1 X167.096 Y36.264 E3.03413
G1 X167.192 Y36.265 E3.03680
G1 X165.622 Y37.948 E3.10073
G1 X165.618 Y37.857 E3.10325
G1 X165.499 Y37.475 E3.11437
G1 X165.301 Y37.101 E3.12615
G1 X164.931 Y36.639 E3.14256
G1 X158.605 Y29.856 E3.40021
G1 X158.266 Y29.531 E3.41327
G1 X157.814 Y29.233 E3.42830
G1 X157.399 Y29.086 E3.44052
G1 X157.326 Y29.085 E3.44255
G1 E1.44255 F2400.00000
G92 E0
G1 X162.445 Y23.515 F7800.000
G1 E2.00000 F2400.00000
G1 F1800
G1 X163.012 Y22.907 E2.02311
G1 X163.771 Y23.721 E2.05403
G1 X163.193 Y23.526 E2.07098
G1 X162.876 Y23.484 E2.07986
G1 X162.518 Y23.501 E2.08981
G1 E0.08981 F2400.00000
G92 E0
G1 X159.002 Y27.371 F7800.000
G1 E2.00000 F2400.00000
G1 F1800
G1 X166.281 Y35.175 E2.25095
G1 X166.634 Y35.505 E2.26229
G1 X166.900 Y35.664 E2.26959
G1 X167.174 Y35.747 E2.27632
G1 X167.433 Y35.748 E2.28242
G1 X167.664 Y35.678 E2.28809
G1 X167.924 Y35.518 E2.29525
G1 X168.101 Y35.369 E2.30071
G1 X168.516 Y34.926 E2.31498
G1 X168.833 Y35.265 E2.32591
G1 X164.654 Y39.746 E2.46997
G1 X164.337 Y39.406 E2.48091
G1 X164.772 Y38.938 E2.49592
G1 X164.918 Y38.741 E2.50169
G1 X165.061 Y38.466 E2.50899
G1 X165.118 Y38.219 E2.51494
G1 X165.104 Y37.949 E2.52131
G1 X165.019 Y37.675 E2.52805
G1 X164.866 Y37.386 E2.53573
G1 X164.539 Y36.978 E2.54803
G1 X158.236 Y30.220 E2.76533
G1 X157.941 Y29.937 E2.77493
G1 X157.581 Y29.700 E2.78506
G1 X157.307 Y29.603 E2.79191
G1 X156.969 Y29.598 E2.79987
G1 X156.725 Y29.690 E2.80599
G1 X156.473 Y29.875 E2.81334
G1 X155.954 Y30.418 E2.83101
G1 X155.626 Y30.067 E2.84231
G1 X163.012 Y22.147 E3.09695
G1 X165.578 Y24.898 E3.18541
G1 X165.231 Y25.271 E3.19738
G1 X163.977 Y24.413 E3.23311
G1 X163.519 Y24.173 E3.24526
G1 X163.079 Y24.034 E3.25611
G1 X162.847 Y24.003 E3.26161
G1 X162.624 Y24.008 E3.26685
G1 X162.405 Y24.050 E3.27210
G1 X162.194 Y24.129 E3.27739
G1 X161.993 Y24.241 E3.28282
G1 X161.804 Y24.385 E3.28841
G1 X161.630 Y24.553 E3.29410
G1 X159.053 Y27.316 E3.38293
G1 X158.644 Y27.720 F7800.000
G1 E1.38293 F2400.00000
G92 E0
G1 X171.861 Y23.757 F7800.000
G1 E2.00000 F2400.00000
G1 F1800
G1 X172.043 Y24.004 E2.00852
G1 X174.456 Y26.599 E2.10693
G1 X174.662 Y26.845 E2.11585
G1 X174.794 Y27.046 E2.12254
G1 X174.884 Y27.233 E2.12830
G1 X174.940 Y27.406 E2.13336
G1 X174.969 Y27.698 E2.14151
G1 X174.833 Y27.486 E2.14852
G1 X174.497 Y27.070 E2.16337
G1 X172.011 Y24.383 E2.26505
G1 X171.874 Y24.126 E2.27315
G1 X171.845 Y23.966 E2.27767
G1 X171.851 Y23.832 E2.28140
G1 X171.911 Y22.554 F7800.000
G1 F1800
G1 X172.029 Y22.935 E2.29247
G1 X172.223 Y23.303 E2.30403
G1 X172.475 Y23.646 E2.31585
G1 X174.876 Y26.227 E2.41378
G1 X175.113 Y26.510 E2.42402
G1 X175.283 Y26.769 E2.43265
G1 X175.407 Y27.025 E2.44052
G1 X175.487 Y27.275 E2.44783
G1 X175.528 Y27.529 E2.45497
G1 X175.531 Y27.792 E2.46227
G1 X175.495 Y28.062 E2.46984
G1 X175.415 Y28.345 E2.47801
G1 X175.286 Y28.645 E2.48708
G1 X175.103 Y28.962 E2.49727
G1 X174.933 Y29.198 E2.50533
G1 X174.930 Y29.081 E2.50858
G1 X174.834 Y28.644 E2.52101
G1 X174.699 Y28.318 E2.53082
G1 X174.377 Y27.814 E2.54742
G1 X174.073 Y27.438 E2.56087
G1 X171.572 Y24.735 E2.66316
G1 X171.397 Y24.445 E2.67256
G1 X171.339 Y24.297 E2.67697
G1 X171.283 Y23.998 E2.68542
G1 X171.310 Y23.647 E2.69521
G1 X171.363 Y23.435 E2.70126
G1 X171.568 Y22.940 E2.71615
G1 X171.884 Y22.364 E2.73441
G1 X171.900 Y22.480 E2.73767
G1 X171.861 Y21.970 F7800.000
G1 F1800
G1 X171.121 Y21.178 E2.76776
G1 X171.514 Y21.158 E2.77871
G1 X171.892 Y21.038 E2.78972
G1 X172.120 Y20.929 E2.79673
G1 X171.975 Y21.278 E2.80723
G1 X171.863 Y21.792 E2.82184
G1 X171.862 Y21.895 E2.82468
G1 E0.82468 F2400.00000
G92 E0
G1 X169.635 Y21.287 F7800.000
G1 E2.00000 F2400.00000
G1 F1800
G1 X169.483 Y21.333 E2.00442
G1 X169.298 Y21.339 E2.00958
G1 X169.183 Y21.297 E2.01298
G1 X169.021 Y21.184 E2.01846
G1 X166.535 Y18.534 E2.11940
G1 X166.145 Y18.172 E2.13417
G1 X165.681 Y17.833 E2.15014
G1 X165.904 Y17.823 E2.15633
G1 X166.033 Y17.849 E2.15998
G1 X166.356 Y17.996 E2.16984
G1 X166.522 Y18.117 E2.17554
G1 X166.728 Y18.313 E2.18346
G1 X169.138 Y20.890 E2.28146
G1 X169.572 Y21.247 E2.29707
G1 X170.959 Y21.181 F7800.000
G1 F1800
G1 X170.231 Y21.627 E2.32079
G1 X169.784 Y21.832 E2.33445
G1 X169.600 Y21.883 E2.33975
G1 X169.309 Y21.908 E2.34788
G1 X169.053 Y21.853 E2.35513
G1 X168.924 Y21.796 E2.35905
G1 X168.652 Y21.607 E2.36826
G1 X168.493 Y21.454 E2.37440
G1 X166.138 Y18.931 E2.47026
G1 X165.788 Y18.605 E2.48355
G1 X165.317 Y18.261 E2.49976
G1 X164.997 Y18.106 E2.50962
G1 X164.536 Y17.982 E2.52290
G1 X164.322 Y17.988 E2.52885
G1 X164.549 Y17.785 E2.53730
G1 X164.829 Y17.587 E2.54684
G1 X165.125 Y17.426 E2.55621
G1 X165.387 Y17.324 E2.56401
G1 X165.643 Y17.266 E2.57130
G1 X165.965 Y17.264 E2.58024
G1 X166.186 Y17.307 E2.58649
G1 X166.416 Y17.393 E2.59332
G1 X166.654 Y17.518 E2.60079
G1 X166.882 Y17.685 E2.60864
G1 X167.127 Y17.918 E2.61802
G1 X169.526 Y20.484 E2.71560
G1 X169.852 Y20.761 E2.72751
G1 X170.213 Y20.985 E2.73930
G1 X170.599 Y21.125 E2.75068
G1 X170.885 Y21.169 E2.75874
G1 X170.974 Y21.779 F7800.000
G1 F1800
G1 X170.485 Y22.079 E2.77223
G1 X170.209 Y22.219 E2.77950
G1 X169.951 Y22.323 E2.78605
G1 X169.709 Y22.391 E2.79196
G1 X169.483 Y22.424 E2.79731
G1 X169.274 Y22.426 E2.80223
G1 X169.073 Y22.397 E2.80701
G1 X168.877 Y22.342 E2.81179
G1 X168.686 Y22.257 E2.81672
G1 X168.497 Y22.144 E2.82189
G1 X168.311 Y21.998 E2.82745
G1 X165.772 Y19.298 E2.91460
G1 X165.457 Y19.006 E2.92471
G1 X165.049 Y18.707 E2.93662
G1 X164.816 Y18.593 E2.94271
G1 X164.475 Y18.502 E2.95101
G1 X164.134 Y18.511 E2.95901
G1 X163.899 Y18.577 E2.96476
G1 X163.675 Y18.690 E2.97065
G1 X163.454 Y18.854 E2.97713
G1 X162.939 Y19.391 E2.99462
G1 X162.611 Y19.039 E3.00594
G1 X163.865 Y17.701 E3.04907
G1 X164.220 Y17.384 E3.06026
G1 X164.392 Y17.256 E3.06529
G1 X164.906 Y16.956 E3.07930
G1 X165.235 Y16.827 E3.08760
G1 X165.561 Y16.754 E3.09545
G1 X166.021 Y16.747 E3.10628
G1 X166.327 Y16.807 E3.11360
G1 X166.628 Y16.919 E3.12117
G1 X166.929 Y17.078 E3.12916
G1 X167.214 Y17.287 E3.13748
G1 X167.495 Y17.553 E3.14657
G1 X169.884 Y20.108 E3.22883
G1 X170.159 Y20.342 E3.23730
G1 X170.440 Y20.517 E3.24511
G1 X170.728 Y20.621 E3.25228
G1 X171.014 Y20.665 E3.25910
G1 X171.421 Y20.644 E3.26869
G1 X171.701 Y20.555 E3.27560
G1 X171.963 Y20.430 E3.28244
G1 X172.332 Y20.184 E3.29286
G1 X172.714 Y19.852 E3.30474
G1 X173.166 Y20.337 E3.32033
G1 X173.014 Y20.513 E3.32581
G1 X172.745 Y20.881 E3.33653
G1 X172.589 Y21.150 E3.34383
G1 X172.471 Y21.434 E3.35105
G1 X172.380 Y21.852 E3.36113
G1 X172.376 Y22.145 E3.36802
G1 X172.418 Y22.440 E3.37501
G1 X172.510 Y22.736 E3.38230
G1 X172.663 Y23.027 E3.39005
G1 X172.875 Y23.315 E3.39844
G1 X175.265 Y25.884 E3.48095
G1 X175.530 Y26.200 E3.49065
G1 X175.735 Y26.514 E3.49947
G1 X175.889 Y26.832 E3.50778
G1 X175.992 Y27.154 E3.51573
G1 X176.045 Y27.484 E3.52359
G1 X176.050 Y27.823 E3.53155
G1 X176.004 Y28.167 E3.53972
G1 X175.904 Y28.519 E3.54831
G1 X175.750 Y28.877 E3.55750
G1 X175.538 Y29.244 E3.56746
G1 X175.267 Y29.619 E3.57834
G1 X174.934 Y30.005 E3.59032
G1 X173.887 Y31.129 E3.62644
G1 X173.568 Y30.786 E3.63745
G1 X174.094 Y30.206 E3.65586
G1 X174.245 Y29.973 E3.66241
G1 X174.350 Y29.732 E3.66858
G1 X174.419 Y29.389 E3.67679
G1 X174.413 Y29.142 E3.68261
G1 X174.338 Y28.800 E3.69085
G1 X174.238 Y28.558 E3.69700
G1 X173.957 Y28.117 E3.70931
G1 X173.681 Y27.777 E3.71960
G1 X171.166 Y25.059 E3.80667
G1 X171.033 Y24.864 E3.81222
G1 X170.925 Y24.661 E3.81762
G1 X170.844 Y24.455 E3.82283
G1 X170.792 Y24.245 E3.82793
G1 X170.765 Y24.028 E3.83306
G1 X170.767 Y23.796 E3.83852
G1 X170.800 Y23.549 E3.84438
G1 X170.866 Y23.284 E3.85079
G1 X170.968 Y23.004 E3.85779
G1 X171.105 Y22.707 E3.86550
G1 X171.377 Y22.211 E3.87880
G1 X171.025 Y21.834 E3.89092
G1 X170.773 Y21.321 F7800.000
G1 Z0.650 F7800.000
G1 E1.89092 F2400.00000
G92 E0
G1 X31.657 Y179.160 F7800.000
G1 E2.00000 F2400.00000
G1 F900
G1 X31.962 Y179.544 E2.01324
G1 X32.336 Y179.858 E2.02642
G1 X31.974 Y180.246 E2.04074
G1 X31.678 Y179.232 E2.06926
G1 E0.06926 F2400.00000
G92 E0
G1 X28.848 Y171.557 F7800.000
G1 E2.00000 F2400.00000
G1 F900
G1 X27.495 Y170.110 E2.05344
G1 X27.178 Y169.826 E2.06492
G1 X27.009 Y169.720 E2.07031
G1 X27.189 Y169.527 E2.07742
G1 X27.458 Y169.878 E2.08936
G1 X28.713 Y171.227 E2.13906
G1 X28.820 Y171.488 E2.14666
G1 E0.14666 F2400.00000
G92 E0
G1 X25.921 Y169.954 F7800.000
G1 E2.00000 F2400.00000
G1 F900
G1 X27.375 Y168.396 E2.05748
G1 X27.468 Y168.718 E2.06652
G1 X27.657 Y169.093 E2.07785
G1 X27.944 Y169.468 E2.09059
G1 X29.257 Y170.879 E2.14259
G1 X30.417 Y173.714 E2.22523
G1 X30.602 Y174.233 E2.24010
G1 X31.744 Y177.897 E2.34362
G1 X31.968 Y178.439 E2.35944
G1 X32.174 Y178.789 E2.37039
G1 X32.420 Y179.099 E2.38107
G1 X32.773 Y179.395 E2.39350
G1 X33.224 Y179.586 E2.40672
G1 X33.445 Y179.601 E2.41269
G1 X31.616 Y181.562 E2.48503
G1 X31.590 Y181.265 E2.49308
G1 X31.486 Y180.842 E2.50481
G1 X29.137 Y172.798 E2.73089
G1 X27.051 Y170.565 E2.81333
G1 X26.794 Y170.336 E2.82262
G1 X26.427 Y170.103 E2.83434
G1 X26.131 Y169.987 E2.84292
G1 X25.995 Y169.966 E2.84662
G1 E0.84662 F2400.00000
G92 E0
G1 X36.920 Y174.069 F7800.000
G1 E2.00000 F2400.00000
G1 F900
G1 X37.878 Y174.370 E2.02708
G1 X38.278 Y174.420 E2.03797
G1 X37.526 Y175.226 E2.06769
G1 X37.456 Y174.841 E2.07826
G1 X37.206 Y174.383 E2.09231
G1 X36.970 Y174.125 E2.10176
G1 E0.10176 F2400.00000
G92 E0
G1 X33.357 Y179.033 F7800.000
G1 E2.00000 F2400.00000
G1 F3000
G1 X33.677 Y179.056 E2.00661
G1 X34.005 Y178.962 E2.01364
G1 X34.313 Y178.772 E2.02111
G1 X34.635 Y178.468 E2.03023
G1 X34.952 Y178.808 E2.03980
G1 X30.915 Y183.136 E2.16178
G1 X30.592 Y182.790 E2.17153
G1 X30.786 Y182.568 E2.17759
G1 X30.980 Y182.197 E2.18623
G1 X31.050 Y181.960 E2.19132
G1 X31.072 Y181.775 E2.19516
G1 X31.035 Y181.357 E2.20381
G1 X30.945 Y180.988 E2.21165
G1 X28.637 Y173.083 E2.38137
G1 X26.658 Y170.966 E2.44108
G1 X26.455 Y170.785 E2.44670
G1 X26.172 Y170.606 E2.45360
G1 X25.983 Y170.531 E2.45780
G1 X25.716 Y170.489 E2.46336
G1 X25.515 Y170.517 E2.46753
G1 X25.273 Y170.620 E2.47297
G1 X24.911 Y170.918 E2.48263
G1 X24.378 Y171.487 E2.49871
G1 X24.051 Y171.137 E2.50858
G1 X28.543 Y166.321 E2.64431
G1 X28.869 Y166.671 E2.65418
G1 X28.282 Y167.304 E2.67198
G1 X28.054 Y167.609 E2.67982
G1 X27.973 Y167.772 E2.68356
G1 X27.904 Y168.030 E2.68908
G1 X27.930 Y168.312 E2.69491
G1 X27.990 Y168.508 E2.69914
G1 X28.134 Y168.794 E2.70574
G1 X28.373 Y169.106 E2.71383
G1 X30.314 Y171.192 E2.77257
G1 X37.417 Y173.648 E2.92746
G1 X37.993 Y173.819 E2.93985
G1 X38.461 Y173.878 E2.94957
G1 X38.803 Y173.816 E2.95672
G1 X39.029 Y173.701 E2.96195
G1 X39.175 Y173.588 E2.96577
G1 X39.357 Y173.399 E2.97117
G1 X39.677 Y173.742 E2.98084
G1 X36.599 Y177.042 E3.07384
G1 X36.282 Y176.702 E3.08341
G1 X36.678 Y176.238 E3.09599
G1 X36.792 Y176.057 E3.10039
G1 X36.934 Y175.720 E3.10792
G1 X36.984 Y175.375 E3.11512
G1 X36.921 Y175.030 E3.12234
G1 X36.747 Y174.711 E3.12983
G1 X36.522 Y174.465 E3.13669
G1 X36.227 Y174.232 E3.14444
G1 X35.780 Y173.999 E3.15483
G1 X32.520 Y172.779 E3.22656
G1 X31.546 Y172.372 E3.24832
G1 X30.226 Y171.767 E3.27825
G1 X30.940 Y173.513 E3.31712
G1 X31.134 Y174.055 E3.32899
G1 X32.271 Y177.706 E3.40779
G1 X32.471 Y178.188 E3.41855
G1 X32.638 Y178.471 E3.42531
G1 X32.824 Y178.706 E3.43149
G1 X33.069 Y178.911 E3.43808
G1 X33.288 Y179.004 E3.44298
G1 X33.450 Y179.340 F7800.000
G1 E1.44298 F2400.00000
G92 E0
G1 X42.922 Y169.346 F7800.000
G1 E2.00000 F2400.00000
G1 F900
G1 X39.268 Y165.429 E2.11039
G1 X40.107 Y164.537 E2.13562
G1 X40.570 Y164.130 E2.14834
G1 X41.024 Y163.851 E2.15931
G1 X41.336 Y163.737 E2.16617
G1 X41.649 Y163.689 E2.17270
G1 X41.973 Y163.707 E2.17938
G1 X42.418 Y163.848 E2.18899
G1 X42.864 Y164.114 E2.19971
G1 X43.316 Y164.486 E2.21176
G1 X43.774 Y164.961 E2.22538
G1 X44.042 Y165.297 E2.23422
G1 X44.334 Y165.776 E2.24578
G1 X44.510 Y166.232 E2.25585
G1 X44.564 Y166.553 E2.26257
G1 X44.563 Y166.874 E2.26918
G1 X44.500 Y167.197 E2.27596
G1 X44.379 Y167.515 E2.28298
G1 X44.117 Y167.971 E2.29382
G1 X43.878 Y168.294 E2.30210
G1 X42.972 Y169.291 E2.32986
G1 X42.568 Y169.700 F7800.000
G1 E0.32986 F2400.00000
G92 E0
G1 X41.654 Y163.128 F7800.000
G1 E2.00000 F2400.00000
G1 F900
G1 X41.196 Y163.192 E2.01247
G1 X41.007 Y163.261 E2.01791
G1 X41.225 Y162.781 E2.03213
G1 X41.246 Y162.696 E2.03450
G1 X41.602 Y163.073 E2.04851
G1 E0.04851 F2400.00000
G92 E0
G1 X43.605 Y163.176 F7800.000
G1 E2.00000 F2400.00000
G1 F900
G1 X43.878 Y163.170 E2.00736
G1 X44.087 Y163.246 E2.01335
G1 X44.378 Y163.444 E2.02287
G1 X44.555 Y163.617 E2.02953
G1 X44.800 Y163.917 E2.03997
G1 X44.959 Y164.185 E2.04838
G1 X45.057 Y164.436 E2.05564
G1 X45.107 Y164.746 E2.06412
G1 X45.024 Y164.610 E2.06841
G1 X44.674 Y164.172 E2.08353
G1 X44.129 Y163.606 E2.10474
G1 X43.663 Y163.223 E2.12100
G1 X42.049 Y163.149 F7800.000
G1 F900
G1 X42.656 Y162.827 E2.13953
G1 X43.052 Y162.661 E2.15112
G1 X43.421 Y162.560 E2.16144
G1 X43.822 Y162.523 E2.17231
G1 X44.000 Y162.544 E2.17713
G1 X44.180 Y162.593 E2.18216
G1 X44.373 Y162.677 E2.18786
G1 X44.580 Y162.797 E2.19431
G1 X44.796 Y162.964 E2.20166
G1 X45.025 Y163.187 E2.21028
G1 X45.322 Y163.551 E2.22297
G1 X45.532 Y163.905 E2.23408
G1 X45.670 Y164.257 E2.24427
G1 X45.740 Y164.615 E2.25409
G1 X45.747 Y164.993 E2.26429
G1 X45.688 Y165.402 E2.27544
G1 X45.553 Y165.853 E2.28815
G1 X45.340 Y166.346 E2.30264
G1 X45.124 Y166.735 E2.31464
G1 X45.125 Y166.507 E2.32078
G1 X45.053 Y166.082 E2.33240
G1 X44.839 Y165.527 E2.34846
G1 X44.502 Y164.975 E2.36590
G1 X44.196 Y164.591 E2.37914
G1 X43.697 Y164.073 E2.39855
G1 X43.187 Y163.655 E2.41634
G1 X42.649 Y163.333 E2.43324
G1 X42.122 Y163.166 E2.44817
G1 E0.44817 F2400.00000
G92 E0
G1 X41.606 Y169.920 F7800.000
G1 E2.00000 F2400.00000
G1 F900
G1 X41.535 Y169.799 E2.00378
G1 X41.207 Y169.402 E2.01767
G1 X34.838 Y162.575 E2.26956
G1 X34.327 Y162.105 E2.28828
G1 X34.188 Y162.023 E2.29264
G1 X34.322 Y161.879 E2.29792
G1 X41.714 Y169.805 E2.59028
G1 X41.657 Y169.865 E2.59252
G1 X42.583 Y169.805 F7800.000
G1 F900
G1 X41.404 Y171.068 E2.63913
G1 X41.239 Y170.550 E2.65380
G1 X41.013 Y170.165 E2.66584
G1 X40.729 Y169.822 E2.67785
G1 X34.389 Y163.026 E2.92857
G1 X33.947 Y162.618 E2.94481
G1 X33.557 Y162.389 E2.95700
G1 X33.160 Y162.263 E2.96825
G1 X33.097 Y162.260 E2.96993
G1 X34.322 Y160.947 E3.01834
G1 X42.532 Y169.750 E3.34306
G1 E1.34306 F2400.00000
G92 E0
G1 X38.839 Y164.969 F7800.000
G1 E2.00000 F2400.00000
G1 F900
G1 X34.752 Y160.587 E2.12351
G1 X35.955 Y159.303 E2.15977
G1 X36.408 Y158.909 E2.17215
G1 X36.860 Y158.631 E2.18308
G1 X37.182 Y158.518 E2.19012
G1 X37.510 Y158.469 E2.19694
G1 X37.832 Y158.485 E2.20360
G1 X38.008 Y158.523 E2.20731
G1 X38.328 Y158.640 E2.21433
G1 X38.802 Y158.920 E2.22567
G1 X39.295 Y159.322 E2.23878
G1 X39.799 Y159.845 E2.25375
G1 X40.213 Y160.368 E2.26751
G1 X40.433 Y160.713 E2.27593
G1 X40.609 Y161.047 E2.28372
G1 X40.773 Y161.549 E2.29461
G1 X40.810 Y161.903 E2.30194
G1 X40.781 Y162.250 E2.30911
G1 X40.693 Y162.594 E2.31644
G1 X40.464 Y163.099 E2.32787
G1 X40.097 Y163.610 E2.34083
G1 X38.890 Y164.914 E2.37746
G1 X38.485 Y165.322 F7800.000
G1 E0.37746 F2400.00000
G92 E0
G1 X41.095 Y159.555 F7800.000
G1 E2.00000 F2400.00000
G1 F900
G1 X40.701 Y159.056 E2.01715
G1 X40.106 Y158.440 E2.04025
G1 X39.488 Y157.936 E2.06178
G1 X39.236 Y157.787 E2.06965
G1 X39.514 Y157.792 E2.07714
G1 X39.731 Y157.849 E2.08320
G1 X39.968 Y157.962 E2.09027
G1 X40.236 Y158.149 E2.09909
G1 X40.537 Y158.434 E2.11028
G1 X40.787 Y158.744 E2.12103
G1 X40.920 Y158.976 E2.12823
G1 X41.001 Y159.174 E2.13401
G1 X41.077 Y159.482 E2.14257
G1 X41.327 Y161.454 F7800.000
G1 F900
G1 X41.127 Y160.828 E2.16028
G1 X40.918 Y160.431 E2.17239
G1 X40.671 Y160.043 E2.18481
G1 X40.222 Y159.475 E2.20433
G1 X39.675 Y158.909 E2.22557
G1 X39.123 Y158.459 E2.24478
G1 X38.569 Y158.132 E2.26214
G1 X38.164 Y157.983 E2.27377
G1 X37.905 Y157.928 E2.28092
G1 X37.482 Y157.906 E2.29234
G1 X37.392 Y157.920 E2.29480
G1 X37.534 Y157.813 E2.29958
G1 X38.026 Y157.515 E2.31510
G1 X38.481 Y157.308 E2.32858
G1 X38.892 Y157.187 E2.34013
G1 X39.291 Y157.141 E2.35099
G1 X39.615 Y157.162 E2.35975
G1 X39.950 Y157.249 E2.36908
G1 X40.289 Y157.411 E2.37920
G1 X40.638 Y157.655 E2.39071
G1 X41.000 Y157.997 E2.40414
G1 X41.325 Y158.404 E2.41819
G1 X41.492 Y158.697 E2.42728
G1 X41.607 Y158.976 E2.43542
G1 X41.724 Y159.448 E2.44852
G1 X41.750 Y159.736 E2.45633
G1 X41.740 Y160.036 E2.46444
G1 X41.659 Y160.557 E2.47867
G1 X41.568 Y160.888 E2.48793
G1 X41.360 Y161.386 E2.50248
G1 X41.572 Y162.223 F7800.000
G1 F3000
G1 X41.914 Y162.586 E2.51276
G1 X42.415 Y162.320 E2.52446
G1 X42.869 Y162.130 E2.53460
G1 X43.307 Y162.010 E2.54396
G1 X43.582 Y161.970 E2.54969
G1 X43.846 Y161.962 E2.55514
G1 X44.107 Y161.993 E2.56056
G1 X44.366 Y162.063 E2.56608
G1 X44.626 Y162.176 E2.57192
G1 X44.893 Y162.331 E2.57829
G1 X45.164 Y162.540 E2.58535
G1 X45.439 Y162.808 E2.59325
G1 X45.783 Y163.229 E2.60446
G1 X46.038 Y163.659 E2.61476
G1 X46.210 Y164.100 E2.62452
G1 X46.300 Y164.554 E2.63407
G1 X46.309 Y165.028 E2.64383
G1 X46.237 Y165.523 E2.65413
G1 X46.081 Y166.045 E2.66536
G1 X45.844 Y166.594 E2.67770
G1 X45.523 Y167.170 E2.69128
G1 X45.119 Y167.771 E2.70621
G1 X44.629 Y168.398 E2.72261
G1 X44.053 Y169.050 E2.74054
G1 X40.414 Y172.952 E2.85051
G1 X40.086 Y172.601 E2.86041
G1 X40.562 Y172.084 E2.87489
G1 X40.762 Y171.754 E2.88283
G1 X40.838 Y171.505 E2.88820
G1 X40.844 Y171.155 E2.89542
G1 X40.724 Y170.780 E2.90354
G1 X40.552 Y170.488 E2.91053
G1 X40.308 Y170.192 E2.91843
G1 X33.994 Y163.424 E3.10920
G1 X33.611 Y163.071 E3.11994
G1 X33.328 Y162.904 E3.12671
G1 X33.059 Y162.819 E3.13252
G1 X32.795 Y162.805 E3.13797
G1 X32.552 Y162.869 E3.14314
G1 X32.346 Y162.992 E3.14808
G1 X32.165 Y163.144 E3.15295
G1 X31.713 Y163.624 E3.16654
G1 X31.386 Y163.273 E3.17642
G1 X35.459 Y158.905 E3.29952
G1 X36.068 Y158.290 E3.31736
G1 X36.655 Y157.771 E3.33349
G1 X37.220 Y157.348 E3.34805
G1 X37.764 Y157.019 E3.36115
G1 X38.284 Y156.781 E3.37294
G1 X38.780 Y156.636 E3.38359
G1 X39.277 Y156.579 E3.39391
G1 X39.705 Y156.606 E3.40274
G1 X40.143 Y156.720 E3.41208
G1 X40.572 Y156.924 E3.42187
G1 X40.994 Y157.220 E3.43248
G1 X41.409 Y157.612 E3.44424
G1 X41.687 Y157.943 E3.45314
G1 X41.997 Y158.451 E3.46542
G1 X42.141 Y158.802 E3.47324
G1 X42.278 Y159.354 E3.48497
G1 X42.312 Y159.720 E3.49254
G1 X42.299 Y160.089 E3.50015
G1 X42.208 Y160.675 E3.51238
G1 X42.101 Y161.062 E3.52064
G1 X41.956 Y161.446 E3.52911
G1 X41.605 Y162.156 E3.54544
G1 X41.256 Y162.610 F7800.000
G1 E1.54544 F2400.00000
G92 E0
G1 X50.315 Y160.190 F7800.000
G1 E2.00000 F2400.00000
G1 F900
G1 X50.614 Y160.045 E2.00897
G1 X50.643 Y160.231 E2.01405
G1 X50.479 Y160.406 E2.02052
G1 X50.363 Y160.248 E2.02582
G1 E0.02582 F2400.00000
G92 E0
G1 X49.027 Y147.778 F7800.000
G1 E2.00000 F2400.00000
G1 F900
G1 X48.945 Y147.260 E2.01414
G1 X49.303 Y147.643 E2.02828
G1 X49.095 Y147.745 E2.03452
G1 X49.389 Y148.308 F7800.000
G1 F900
G1 X51.320 Y160.437 E2.36584
G1 X50.277 Y161.555 E2.40707
G1 X50.270 Y161.480 E2.40911
G1 X50.136 Y161.086 E2.42033
G1 X49.923 Y160.714 E2.43189
G1 X49.639 Y160.371 E2.44391
G1 X49.281 Y159.988 E2.45805
G1 X50.245 Y159.517 E2.48699
G1 X48.125 Y146.147 E2.85218
G1 X48.451 Y145.798 E2.86506
G1 X50.353 Y147.838 E2.94030
G1 X49.457 Y148.275 E2.96721
G1 E0.96721 F2400.00000
G92 E0
G1 X56.497 Y154.216 F7800.000
G1 E2.00000 F2400.00000
G1 F900
G1 X56.911 Y154.363 E2.01183
G1 X56.982 Y154.366 E2.01377
G1 X56.637 Y154.736 E2.02744
G1 X56.548 Y154.399 E2.03684
G1 X56.444 Y154.186 E2.04323
G1 E0.04323 F2400.00000
G92 E0
G1 X42.516 Y152.936 F7800.000
G1 E2.00000 F2400.00000
G1 F900
G1 X42.057 Y152.750 E2.01335
G1 X41.970 Y152.747 E2.01572
G1 X42.328 Y152.363 E2.02991
G1 X42.348 Y152.494 E2.03348
G1 X42.479 Y152.871 E2.04426
G1 X41.938 Y153.307 F7800.000
G1 F3000
G1 X41.652 Y153.296 E2.05016
G1 X41.344 Y153.400 E2.05686
G1 X41.090 Y153.583 E2.06331
G1 X40.586 Y154.112 E2.07837
G1 X40.258 Y153.760 E2.08829
G1 X43.327 Y150.470 E2.18102
G1 X43.654 Y150.821 E2.19090
G1 X43.169 Y151.346 E2.20563
G1 X42.994 Y151.597 E2.21193
G1 X42.915 Y151.760 E2.21567
G1 X42.855 Y152.093 E2.22265
G1 X42.895 Y152.359 E2.22819
G1 X42.991 Y152.637 E2.23426
G1 X43.118 Y152.843 E2.23924
G1 X43.442 Y153.239 E2.24979
G1 X49.195 Y159.406 E2.42361
G1 X49.627 Y159.195 E2.43352
G1 X47.529 Y145.964 E2.70961
G1 X48.451 Y144.976 E2.73747
G1 X56.103 Y153.181 E2.96871
G1 X56.477 Y153.534 E2.97931
G1 X56.747 Y153.710 E2.98596
G1 X57.018 Y153.806 E2.99188
G1 X57.292 Y153.818 E2.99754
G1 X57.538 Y153.746 E3.00282
G1 X57.795 Y153.593 E3.00898
G1 X57.970 Y153.447 E3.01368
G1 X58.386 Y153.003 E3.02621
G1 X58.703 Y153.343 E3.03580
G1 X55.634 Y156.633 E3.12853
G1 X55.317 Y156.293 E3.13811
G1 X55.748 Y155.830 E3.15113
G1 X55.882 Y155.646 E3.15584
G1 X56.024 Y155.376 E3.16212
G1 X56.101 Y155.070 E3.16862
G1 X56.091 Y154.867 E3.17280
G1 X56.020 Y154.596 E3.17859
G1 X55.881 Y154.312 E3.18511
G1 X55.577 Y153.927 E3.19522
G1 X50.441 Y148.419 E3.35044
G1 X50.008 Y148.630 E3.36035
G1 X51.916 Y160.620 E3.61057
G1 X49.286 Y163.439 E3.69004
G1 X48.968 Y163.099 E3.69964
G1 X49.445 Y162.581 E3.71415
G1 X49.573 Y162.384 E3.71899
G1 X49.694 Y162.119 E3.72499
G1 X49.744 Y161.874 E3.73016
G1 X49.718 Y161.597 E3.73587
G1 X49.623 Y161.317 E3.74197
G1 X49.461 Y161.035 E3.74868
G1 X49.218 Y160.741 E3.75654
G1 X42.859 Y153.923 E3.94870
G1 X42.566 Y153.643 E3.95703
G1 X42.282 Y153.446 E3.96418
G1 X42.008 Y153.335 E3.97026
G1 X41.844 Y153.037 F7800.000
G1 E1.97026 F2400.00000
G92 E0
G1 X58.247 Y145.750 F7800.000
G1 E2.00000 F2400.00000
G1 F900
G1 X58.322 Y145.762 E2.00205
G1 X58.420 Y145.814 E2.00503
G1 X58.616 Y145.990 E2.01216
G1 X60.966 Y148.508 E2.10506
G1 X61.500 Y148.998 E2.12462
G1 X61.338 Y148.913 E2.12955
G1 X61.172 Y148.788 E2.13517
G1 X60.953 Y148.576 E2.14339
G1 X58.524 Y145.980 E2.23928
G1 X58.305 Y145.798 E2.24698
G1 X58.420 Y145.129 F7800.000
G1 F900
G1 X58.655 Y145.214 E2.25373
G1 X58.780 Y145.289 E2.25767
G1 X59.070 Y145.545 E2.26811
G1 X61.416 Y148.058 E2.36084
G1 X61.867 Y148.479 E2.37749
G1 X62.249 Y148.756 E2.39023
G1 X62.578 Y148.913 E2.40004
G1 X63.042 Y149.029 E2.41296
G1 X63.127 Y149.027 E2.41524
G1 X62.844 Y149.261 E2.42513
G1 X62.562 Y149.448 E2.43427
G1 X62.301 Y149.577 E2.44213
G1 X62.061 Y149.654 E2.44891
G1 X61.840 Y149.688 E2.45495
G1 X61.628 Y149.685 E2.46068
G1 X61.420 Y149.646 E2.46637
G1 X61.211 Y149.570 E2.47238
G1 X60.991 Y149.448 E2.47917
G1 X60.758 Y149.272 E2.48703
G1 X60.500 Y149.022 E2.49673
G1 X58.087 Y146.444 E2.59199
G1 X57.751 Y146.164 E2.60379
G1 X57.380 Y145.949 E2.61537
G1 X57.000 Y145.821 E2.62619
G1 X56.790 Y145.786 E2.63192
G1 X57.404 Y145.398 E2.65151
G1 X57.637 Y145.275 E2.65862
G1 X58.020 Y145.138 E2.66959
G1 X58.168 Y145.115 E2.67363
G1 X58.345 Y145.120 E2.67842
G1 E0.67842 F2400.00000
G92 E0
